!!!!SEGMENT: pl-wtm--r-1556--001_stefani-jozef--msza-no-15-kyrie.krn
!!!id: 18xx:1829
!!!COM: Stefani, Józef
!!!COM-rism: pe30024097
!!!CDT: 1800/04/16-1876/03/19
!!!CNT: Polish
!!!OTL: Msza No 15 – Kyrie
!!!PDT: 1858
!!!SMS-siglum: PL-Wtm
!!!SMS-shelfmark: R 1556
!!!NIFC-rismID: 1001115188
!!!URL-scan: http://repozytorium.nifc.pl/skany/pl-wtm-nut--r1556
!!!ONB-nifc: UWAGA: części Mszy: 1. Kyrie, 2. Gloria, 3. Credo, 4. Sanctus, 5. Benedictus,
!!!SMS-variant:
!!!SMS-altvar:
**kern	**dynam	**kern	**dynam	**kern	**text	**dynam	**kern	**text	**dynam	**kern	**text	**dynam	**kern	**text	**dynam	**kern	**kern	**dynam	**kern	**dynam	**kern	**dynam	**kern	**dynam	**kern	**kern	**dynam	**kern	**dynam	**kern	**dynam	**kern	**dynam	**kern	**kern	**dynam
*part18	*part18	*part17	*part17	*part16	*part16	*part16	*part15	*part15	*part15	*part14	*part14	*part14	*part13	*part13	*part13	*part12	*part11	*part11	*part10	*part10	*part9	*part9	*part8	*part8	*part7	*part6	*part6	*part5	*part5	*part4	*part4	*part3	*part3	*part2	*part1	*part1
*staff18	*	*staff17	*	*staff16	*staff16	*	*staff15	*staff15	*	*staff14	*staff14	*	*staff13	*staff13	*	*staff12	*staff11	*	*staff10	*	*staff9	*	*staff8	*	*staff7	*staff6	*	*staff5	*	*staff4	*	*staff3	*	*staff2	*staff1	*
*I"C: Baſsi	*	*I"Violoncelli	*	*I"Baſso	*	*	*I"Tenore	*	*	*I"Alto	*	*	*I"Soprano	*	*	*I"Timpani Es. b.	*I"Viole	*	*I"Violini	*	*I"Violini	*	*I"Tromboni	*	*I"Trombe in B.	*I"Fagotti	*	*I"Corni in Es.	*	*I"Clarinetti in B	*	*I"Oboe	*	*I"Flautti	*I"Flautti	*
*I'cb	*	*I'vlc	*	*I'B	*	*	*I'T	*	*	*I'A	*	*	*I'S	*	*	*I'timp in E|b and B|b	*I'vla	*	*I'vl 2	*	*I'vl 1	*	*I'trb	*	*I'tr in B|b	*I'fag	*	*I'cor in E|b	*	*I'cl in B|b	*	*I'ob	*	*I'fl	*I'fl	*
*clefF4	*	*clefF4	*	*clefF4	*	*	*clefC4	*	*	*clefC3	*	*	*clefC1	*	*	*clefF4	*clefC3	*	*clefG2	*	*clefG2	*	*clefF4	*	*clefG2	*clefF4	*	*clefG2	*	*clefG2	*	*clefG2	*	*clefG2	*clefG2	*
*ITrd0c0	*	*	*	*	*	*	*	*	*	*	*	*	*	*	*	*	*	*	*	*	*	*	*	*	*	*	*	*ITrd5c9	*	*ITrd1c2	*	*	*	*	*	*
*k[b-e-a-]	*	*k[b-e-a-]	*	*k[b-e-a-]	*	*	*k[b-e-a-]	*	*	*k[b-e-a-]	*	*	*k[b-e-a-]	*	*	*k[b-e-a-]	*k[b-e-a-]	*	*k[b-e-a-]	*	*k[b-e-a-]	*	*k[b-e-a-]	*	*k[]	*k[b-e-a-]	*	*k[b-e-a-]	*	*k[b-e-a-]	*	*k[b-e-a-]	*	*k[b-e-a-]	*k[b-e-a-]	*
*M6/8	*	*M6/8	*	*M6/8	*	*	*M6/8	*	*	*M6/8	*	*	*M6/8	*	*	*M6/8	*M6/8	*	*M6/8	*	*M6/8	*	*M6/8	*	*M6/8	*M6/8	*	*M6/8	*	*M6/8	*	*M6/8	*	*M6/8	*M6/8	*
=1	=1	=1	=1	=1	=1	=1	=1	=1	=1	=1	=1	=1	=1	=1	=1	=1	=1	=1	=1	=1	=1	=1	=1	=1	=1	=1	=1	=1	=1	=1	=1	=1	=1	=1	=1	=1
!	!	!	!	!	!	!	!	!	!	!	!	!	!LO:TX:a:t=P:problem:znaki przykluczowe w źródle:b-,ee-,a-	!	!	!	!	!	!	!	!LO:TX:a:t=P:problem:znaki przykluczowe w źródle:b-,ee-,a-,b-	!	!	!	!	!	!	!	!	!	!	!	!	!	!LO:TX:a:t=N=o 15. Msza JStefaniego\nrok 1858.	!
!	!	!	!	!	!	!	!	!	!	!	!	!	!	!	!	!	!	!	!	!	!	!	!	!	!	!	!	!	!	!	!	!	!	!	!LO:TX:a:t=Kyrie.	!
!	!	!	!LO:DY:b:rj	!	!	!	!	!	!	!	!	!	!	!	!	!	!	!	!	!LO:DY:b:rj	!	!	!	!	!	!	!	!	!	!	!	!	!	!	!LO:TX:a:t=Andante	!
!	!	!	!	!	!	!	!	!	!	!	!	!	!	!	!	!LO:TX:a:t=P:problem:przy kluczu nuty: E-, BB-	!	!	!	!	!	!	!	!	!	!	!	!	!	!	!	!	!	!	!LO:TX:a:t=P:problem:all\right	!
2.r	.	(>(>4E-'>\	p	2.r	.	.	2.r	.	.	2.r	.	.	2.r	.	.	2.r	4G/	.	(>4e-'>/	p	2.r	.	2.ryy	.	2.ryy	2.ryy	.	2.ryy	.	2.ryy	.	2.ryy	.	2.ryy	2.ryy	.
.	.	8E-'>\)	.	.	.	.	.	.	.	.	.	.	.	.	.	.	8G/	.	8B-'>/)	.	.	.	.	.	.	.	.	.	.	.	.	.	.	.	.	.
.	.	(>4E-'>\	.	.	.	.	.	.	.	.	.	.	.	.	.	.	4A-/	.	(>4c'>/	.	.	.	.	.	.	.	.	.	.	.	.	.	.	.	.	.
.	.	8E-'>\))	.	.	.	.	.	.	.	.	.	.	.	.	.	.	8F/	.	8d'>/)	.	.	.	.	.	.	.	.	.	.	.	.	.	.	.	.	.
=2	=2	=2	=2	=2	=2	=2	=2	=2	=2	=2	=2	=2	=2	=2	=2	=2	=2	=2	=2	=2	=2	=2	=2	=2	=2	=2	=2	=2	=2	=2	=2	=2	=2	=2	=2	=2
2.r	.	(>4E-'>\	.	2.r	.	.	2.r	.	.	2.r	.	.	2.r	.	.	2.r	4G/	.	(>4e-'>/	.	2.r	.	2.ryy	.	2.ryy	2.ryy	.	2.ryy	.	2.ryy	.	2.ryy	.	2.ryy	2.ryy	.
.	.	8D'>\)	.	.	.	.	.	.	.	.	.	.	.	.	.	.	8B-/	.	8f'>/)	.	.	.	.	.	.	.	.	.	.	.	.	.	.	.	.	.
.	.	(>4E-'>\	.	.	.	.	.	.	.	.	.	.	.	.	.	.	4B-/	.	(>4g'>/	.	.	.	.	.	.	.	.	.	.	.	.	.	.	.	.	.
.	.	8c'>\)	.	.	.	.	.	.	.	.	.	.	.	.	.	.	8e-\	.	8a-'>/)	.	.	.	.	.	.	.	.	.	.	.	.	.	.	.	.	.
=3	=3	=3	=3	=3	=3	=3	=3	=3	=3	=3	=3	=3	=3	=3	=3	=3	=3	=3	=3	=3	=3	=3	=3	=3	=3	=3	=3	=3	=3	=3	=3	=3	=3	=3	=3	=3
2.r	.	(>4.B-\	.	2.r	.	.	2.r	.	.	2.r	.	.	2.r	.	.	2.r	4.e-\	.	(>4.g/	.	2.r	.	2.ryy	.	2.ryy	2.ryy	.	2.ryy	.	2.ryy	.	2.ryy	.	2.ryy	2.ryy	.
.	.	4B-\	.	.	.	.	.	.	.	.	.	.	.	.	.	.	(>4e-\	.	4.f/)	.	.	.	.	.	.	.	.	.	.	.	.	.	.	.	.	.
.	.	8A-\)	.	.	.	.	.	.	.	.	.	.	.	.	.	.	8d\)	.	.	.	.	.	.	.	.	.	.	.	.	.	.	.	.	.	.	.
=4	=4	=4	=4	=4	=4	=4	=4	=4	=4	=4	=4	=4	=4	=4	=4	=4	=4	=4	=4	=4	=4	=4	=4	=4	=4	=4	=4	=4	=4	=4	=4	=4	=4	=4	=4	=4
*	*	*	*	*	*	*	*	*	*	*	*	*	*	*	*	*	*^	*	*	*	*	*	*	*	*	*	*	*	*	*	*	*	*	*	*	*
2.r	.	4G\	.	2.r	.	.	2.r	.	.	2.r	.	.	2.r	.	.	2.r	4e-\	4rDyy	.	4b-/	.	2.r	.	2.ryy	.	2.ryy	2.ryy	.	2.ryy	.	2.ryy	.	2.ryy	.	2.ryy	2.ryy	.
.	.	8G\	.	.	.	.	.	.	.	.	.	.	.	.	.	.	8e-/	8B-\	.	8e-/	.	.	.	.	.	.	.	.	.	.	.	.	.	.	.	.	.
.	.	8.A-\L	.	.	.	.	.	.	.	.	.	.	.	.	.	.	8.d/L	4B-\	.	8.f/L	.	.	.	.	.	.	.	.	.	.	.	.	.	.	.	.	.
.	.	16G\K	.	.	.	.	.	.	.	.	.	.	.	.	.	.	16e-/K	.	.	16g/K	.	.	.	.	.	.	.	.	.	.	.	.	.	.	.	.	.
.	.	8F\J	.	.	.	.	.	.	.	.	.	.	.	.	.	.	8d/J	8B-\	.	8a-/J	.	.	.	.	.	.	.	.	.	.	.	.	.	.	.	.	.
!!LO:PB:g=original
=5	=5	=5	=5	=5	=5	=5	=5	=5	=5	=5	=5	=5	=5	=5	=5	=5	=5	=5	=5	=5	=5	=5	=5	=5	=5	=5	=5	=5	=5	=5	=5	=5	=5	=5	=5	=5	=5
2.r	.	4G\	.	2.ryy	.	.	2.ryy	.	.	2.ryy	.	.	2.ryy	.	.	2.ryy	4e-/	4B-\	.	4b-/	.	2.r	.	2.ryy	.	2.ryy	2.ryy	.	2.ryy	.	2.ryy	.	2.ryy	.	2.ryy	2.ryy	.
.	.	8G\	.	.	.	.	.	.	.	.	.	.	.	.	.	.	8e-/	8B-\	.	8e-/	.	.	.	.	.	.	.	.	.	.	.	.	.	.	.	.	.
.	.	8.A-\L	.	.	.	.	.	.	.	.	.	.	.	.	.	.	8.d/L	4B-\	.	8.f/L	.	.	.	.	.	.	.	.	.	.	.	.	.	.	.	.	.
.	.	16G\K	.	.	.	.	.	.	.	.	.	.	.	.	.	.	16e-/K	.	.	16g/K	.	.	.	.	.	.	.	.	.	.	.	.	.	.	.	.	.
.	.	8F\J	.	.	.	.	.	.	.	.	.	.	.	.	.	.	8d/J	8B-\	.	8a-/J	.	.	.	.	.	.	.	.	.	.	.	.	.	.	.	.	.
*	*	*	*	*	*	*	*	*	*	*	*	*	*	*	*	*	*v	*v	*	*	*	*	*	*	*	*	*	*	*	*	*	*	*	*	*	*	*
=6	=6	=6	=6	=6	=6	=6	=6	=6	=6	=6	=6	=6	=6	=6	=6	=6	=6	=6	=6	=6	=6	=6	=6	=6	=6	=6	=6	=6	=6	=6	=6	=6	=6	=6	=6	=6
2.r	.	4.G\	.	2.ryy	.	.	2.ryy	.	.	2.ryy	.	.	2.ryy	.	.	2.ryy	4.e- 4.B-\	.	4.b-/	.	2.r	.	2.ryy	.	2.ryy	2.ryy	.	2.ryy	.	2.ryy	.	2.ryy	.	2.ryy	2.ryy	.
.	.	4.G\	.	.	.	.	.	.	.	.	.	.	.	.	.	.	4.d\	.	4.bn/	.	.	.	.	.	.	.	.	.	.	.	.	.	.	.	.	.
=7	=7	=7	=7	=7	=7	=7	=7	=7	=7	=7	=7	=7	=7	=7	=7	=7	=7	=7	=7	=7	=7	=7	=7	=7	=7	=7	=7	=7	=7	=7	=7	=7	=7	=7	=7	=7
*	*	*	*	*	*	*	*	*	*	*	*	*	*	*	*	*	*	*	*	*	*	*	*	*	*	*	*	*^	*	*^	*	*^	*	*	*	*
4r	.	4.A-\	.	2.ryy	.	.	2.ryy	.	.	2.ryy	.	.	2.ryy	.	.	2.ryy	4.e-\	.	4.cc\	.	4r	.	4.ryy	.	2.ryy	4.ryy	.	4.ryy	4.rCyy	.	4.ryy	4.rGyy	.	4.ryy	4.rAyy	.	2.ryy	4.ryy	.
8r	.	.	.	.	.	.	.	.	.	.	.	.	.	.	.	.	.	.	.	.	8r	.	.	.	.	.	.	.	.	.	.	.	.	.	.	.	.	.	.
*	*	*	*	*	*	*	*	*	*	*	*	*	*	*	*	*	*	*	*	*	*	*	*	*	*	*2\right	*	*2\right	*2\right	*	*2\right	*2\right	*	*2\right	*2\right	*	*	*2\right	*
4.An^<\	.	4.An^<\	.	.	.	.	.	.	.	.	.	.	.	.	.	.	4.e-^>\	.	4.f#X/	.	4.cc^<\	.	4.c^< 4.F#X 4.AAn\	.	.	4.An^< 4.AAn\	.	4.g-X/	4.e-^<\	.	4.ee-/	4.cc^<\	.	4.ff#X^>/	4.cc\	.	.	4.ccc^<\	.
=8	=8	=8	=8	=8	=8	=8	=8	=8	=8	=8	=8	=8	=8	=8	=8	=8	=8	=8	=8	=8	=8	=8	=8	=8	=8	=8	=8	=8	=8	=8	=8	=8	=8	=8	=8	=8	=8	=8	=8
!	!	!LO:TX:t=P:problem:dwie ukośne kreski - unisono z kontrabasem (t. 8-10)	!	!	!	!	!	!	!	!	!	!	!	!	!	!	!	!	!	!	!	!	!	!LO:DY:b:rj	!	!	!	!	!	!LO:DY:b:rj	!	!	!LO:DY:b:rj	!	!	!LO:DY:a:rj	!	!	!LO:DY:b:rj
4.B-\	.	4.B-yy\	.	2.ryy	.	.	2.ryy	.	.	2.ryy	.	.	2.ryy	.	.	2.ryy	4.e-\	.	4.g/	.	8b-`>\	.	4.B- 4.G 4.BB-\	f	2.ryy	4.B- 4.BB-\	.	4.g/	4.e-\	f	4.ee-/	2.b-\	f	4.gg/	8b-\	f	2.ryy	8bb-`>\	f
.	.	.	.	.	.	.	.	.	.	.	.	.	.	.	.	.	.	.	.	.	4ee-`>\	.	.	.	.	.	.	.	.	.	.	.	.	.	4ee-\	.	.	4eee-`>\	.
4.BB-/	.	4.BB-yy/	.	.	.	.	.	.	.	.	.	.	.	.	.	.	4.f\	.	4.a-/	.	(>8ee-\L	.	4.A- 4.F 4.BB-\	.	.	4.B- 4.BB-\	.	4.f/ 4.B-	4.ryy	.	4.ff/	.	.	4.aa-/	8ee-\L	.	.	(>8eee-\L	.
.	.	.	.	.	.	.	.	.	.	.	.	.	.	.	.	.	.	.	.	.	16dd\L	.	.	.	.	.	.	.	.	.	.	.	.	.	16dd\L	.	.	16ddd\L	.
.	.	.	.	.	.	.	.	.	.	.	.	.	.	.	.	.	.	.	.	.	16cc\J	.	.	.	.	.	.	.	.	.	.	.	.	.	16cc\J	.	.	16ccc\J	.
.	.	.	.	.	.	.	.	.	.	.	.	.	.	.	.	.	.	.	.	.	8dd\J)	.	.	.	.	.	.	.	.	.	.	.	.	.	8dd\J	.	.	8ddd\J)	.
*	*	*	*	*	*	*	*	*	*	*	*	*	*	*	*	*	*	*	*	*	*	*	*	*	*	*	*	*v	*v	*	*	*	*	*	*	*	*	*	*
=9	=9	=9	=9	=9	=9	=9	=9	=9	=9	=9	=9	=9	=9	=9	=9	=9	=9	=9	=9	=9	=9	=9	=9	=9	=9	=9	=9	=9	=9	=9	=9	=9	=9	=9	=9	=9	=9	=9
*	*	*	*	*	*	*	*	*	*	*	*	*	*	*	*	*	*	*	*	*	*	*	*^	*	*	*	*	*	*	*	*	*	*	*	*	*	*	*
4E-\	.	4E-yy\	.	2.ryy	.	.	2.ryy	.	.	2.ryy	.	.	2.ryy	.	.	2.ryy	4e-\	.	4g/	.	4ee-\	.	4G/	4E-\	.	2.ryy	4B- 4E-\	.	4e- 4G/	.	4ee-/	4b-\	.	4gg/	4ee-\	.	2.ryy	4eee-\	.
!	!	!	!	!	!	!	!	!	!	!	!	!	!	!	!	!	!	!	!LO:TX:a:t=P:problem:staccatissimo zarówno nad i pod nutą	!	!	!	!	!	!	!	!	!	!	!	!	!	!	!	!	!LO:DY:a:rj	!	!	!LO:DY:b:rj
8r	.	8ryy	.	.	.	.	.	.	.	.	.	.	.	.	.	.	8r	.	8a-`>`</	.	8cc`>\	.	8r	8rEEyy	.	.	8r	.	8r	.	8r	8rdyy	.	8aa-`>/	8rg	p	.	8ccc`>\	p
4r	.	4ryy	.	.	.	.	.	.	.	.	.	.	.	.	.	.	4r	.	(<4g/	.	(>4b-/	.	4r	4rEEyy	.	.	4r	.	4r	.	4r	4rdyy	.	(>4gg/	4rg	.	.	(>4bb-\	.
8r	.	8ryy	.	.	.	.	.	.	.	.	.	.	.	.	.	.	8r	.	8en/	.	8g/	.	8r	8rEEyy	.	.	8r	.	8r	.	8r	8rByy	.	8een/	8rg	.	.	8gg\	.
*	*	*	*	*	*	*	*	*	*	*	*	*	*	*	*	*	*	*	*	*	*	*	*v	*v	*	*	*	*	*	*	*v	*v	*	*	*	*	*	*	*
=10	=10	=10	=10	=10	=10	=10	=10	=10	=10	=10	=10	=10	=10	=10	=10	=10	=10	=10	=10	=10	=10	=10	=10	=10	=10	=10	=10	=10	=10	=10	=10	=10	=10	=10	=10	=10	=10
2.r	.	2.ryy	.	2.ryy	.	.	2.ryy	.	.	2.ryy	.	.	2.ryy	.	.	2.ryy	2.r	.	4f/)	.	4a-/)	.	2.r	.	2.ryy	2.r	.	2.r	.	2.r	.	4ff/)	2.r	.	2.ryy	4aa-\)	.
.	.	.	.	.	.	.	.	.	.	.	.	.	.	.	.	.	.	.	8g`</	.	8b-`>/	.	.	.	.	.	.	.	.	.	.	8aa-`>/	.	.	.	8bb-`>\	.
.	.	.	.	.	.	.	.	.	.	.	.	.	.	.	.	.	.	.	(<4f/	.	(>4a-/	.	.	.	.	.	.	.	.	.	.	(>4ff/	.	.	.	(>4aa-\	.
.	.	.	.	.	.	.	.	.	.	.	.	.	.	.	.	.	.	.	8d/)	.	8f/)	.	.	.	.	.	.	.	.	.	.	8dd/)	.	.	.	8ff\)	.
*	*	*	*	*	*	*	*	*	*	*	*	*	*	*	*	*	*	*	*	*	*	*	*	*	*	*	*	*	*	*	*	*v	*v	*	*	*	*
!!LO:PB:g=original
=11	=11	=11	=11	=11	=11	=11	=11	=11	=11	=11	=11	=11	=11	=11	=11	=11	=11	=11	=11	=11	=11	=11	=11	=11	=11	=11	=11	=11	=11	=11	=11	=11	=11	=11	=11	=11
2.r	.	2.r	.	2.ryy	.	.	2.ryy	.	.	2.ryy	.	.	2.ryy	.	.	2.ryy	4r	.	4e-/	.	4g/	.	2.ryy	.	2.ryy	2.ryy	.	2.ryy	.	4r	.	4ee-/	.	2.ryy	4gg\	.
.	.	.	.	.	.	.	.	.	.	.	.	.	.	.	.	.	8c/	.	8a-/	.	8r	.	.	.	.	.	.	.	.	8cc/	.	8aa-/	.	.	8r	.
.	.	.	.	.	.	.	.	.	.	.	.	.	.	.	.	.	4B-/	.	4g/	.	4r	.	.	.	.	.	.	.	.	4b-/	.	4gg/	.	.	4r	.
.	.	.	.	.	.	.	.	.	.	.	.	.	.	.	.	.	8G/	.	8en/	.	8r	.	.	.	.	.	.	.	.	8g/	.	8een/	.	.	8r	.
=12	=12	=12	=12	=12	=12	=12	=12	=12	=12	=12	=12	=12	=12	=12	=12	=12	=12	=12	=12	=12	=12	=12	=12	=12	=12	=12	=12	=12	=12	=12	=12	=12	=12	=12	=12	=12
2.r	.	4r	.	2.ryy	.	.	2.ryy	.	.	2.ryy	.	.	2.ryy	.	.	2.ryy	4A-/	.	4f/	.	2.r	.	2.ryy	.	2.ryy	2.ryy	.	2.ryy	.	4a-/	.	4ff/	.	2.ryy	2.ryy	.
.	.	8r	.	.	.	.	.	.	.	.	.	.	.	.	.	.	8B-/	.	8g/	.	.	.	.	.	.	.	.	.	.	8b-/	.	8gg/	.	.	.	.
.	.	4r	.	.	.	.	.	.	.	.	.	.	.	.	.	.	4A-/	.	4f/	.	.	.	.	.	.	.	.	.	.	4a-/	.	4ff/	.	.	.	.
.	.	8BB-/	.	.	.	.	.	.	.	.	.	.	.	.	.	.	8F/	.	8d/	.	.	.	.	.	.	.	.	.	.	8f/	.	8dd/	.	.	.	.
!!LO:PB:g=original
=13	=13	=13	=13	=13	=13	=13	=13	=13	=13	=13	=13	=13	=13	=13	=13	=13	=13	=13	=13	=13	=13	=13	=13	=13	=13	=13	=13	=13	=13	=13	=13	=13	=13	=13	=13	=13
*	*	*	*	*2\right	*	*	*2\right	*	*	*2\right	*	*	*	*	*	*	*	*	*	*	*	*	*	*	*	*	*	*	*	*	*	*	*	*	*	*
4E-\	.	(>4E-'>\	.	4E-\	Ky-	.	4G/	.	.	4e-\	.	.	2.r	.	.	2.ryy	4G/	.	4e-/	.	4e-/	.	2.ryy	.	2.ryy	2.ryy	.	2.ryy	.	2.ryy	.	2.ryy	.	2.ryy	2.ryy	.
8r	.	8E-'>\	.	8E-\	-ri-	.	8G/	.	.	8B-\	.	.	.	.	.	.	8G/	.	8B-/	.	8r	.	.	.	.	.	.	.	.	.	.	.	.	.	.	.
4r	.	4E-'>\	.	4E-\	-e	.	4A-/	.	.	4c\	.	.	.	.	.	.	4A-/	.	4c/	.	4r	.	.	.	.	.	.	.	.	.	.	.	.	.	.	.
8r	.	8E-'>\)	.	8E-\	e-	.	8F/	.	.	8d\	.	.	.	.	.	.	8F/	.	8d/	.	8r	.	.	.	.	.	.	.	.	.	.	.	.	.	.	.
=14	=14	=14	=14	=14	=14	=14	=14	=14	=14	=14	=14	=14	=14	=14	=14	=14	=14	=14	=14	=14	=14	=14	=14	=14	=14	=14	=14	=14	=14	=14	=14	=14	=14	=14	=14	=14
2.r	.	(>4E-'>\	.	4E-\	-lei-	.	4G/	.	.	4e-\	.	.	2.r	.	.	2.ryy	4G/	.	4e-/	.	2.r	.	2.ryy	.	2.ryy	2.ryy	.	2.ryy	.	2.ryy	.	2.ryy	.	2.ryy	2.ryy	.
.	.	8D'>\)	.	8D\	.	.	8B-\	.	.	8f\	.	.	.	.	.	.	8B-/	.	8f/	.	.	.	.	.	.	.	.	.	.	.	.	.	.	.	.	.
.	.	(>4E-'>\	.	4E-\	-son	.	4B-\	.	.	4g\	.	.	.	.	.	.	4B-/	.	4g/	.	.	.	.	.	.	.	.	.	.	.	.	.	.	.	.	.
.	.	8c'>\)	.	8c\	e-	.	8e-\	.	.	8a-\	.	.	.	.	.	.	8e-\	.	8a-/	.	.	.	.	.	.	.	.	.	.	.	.	.	.	.	.	.
=15	=15	=15	=15	=15	=15	=15	=15	=15	=15	=15	=15	=15	=15	=15	=15	=15	=15	=15	=15	=15	=15	=15	=15	=15	=15	=15	=15	=15	=15	=15	=15	=15	=15	=15	=15	=15
*	*	*	*	*	*	*	*	*	*	*	*	*	*	*	*	*	*^	*	*	*	*	*	*	*	*	*	*	*	*	*	*	*	*	*	*	*
2.r	.	(4.B-\	.	4.B-\	-lei-	.	4.e-\	.	.	4.g\	.	.	2.r	.	.	2.ryy	[>4.e-/	4.e-\	.	4.g/	.	2.r	.	2.ryy	.	2.ryy	2.ryy	.	2.ryy	.	2.ryy	.	2.ryy	.	2.ryy	2.ryy	.
.	.	(>4B-\	.	(>4B-\	-son	.	(>4e-\	.	.	4.f\	.	.	.	.	.	.	(>4e-/]	4.B-\	.	4.f/	.	.	.	.	.	.	.	.	.	.	.	.	.	.	.	.	.
.	.	8A-\))	.	8A-\)	.	.	8d\)	.	.	.	.	.	.	.	.	.	8d/)	.	.	.	.	.	.	.	.	.	.	.	.	.	.	.	.	.	.	.	.
=16	=16	=16	=16	=16	=16	=16	=16	=16	=16	=16	=16	=16	=16	=16	=16	=16	=16	=16	=16	=16	=16	=16	=16	=16	=16	=16	=16	=16	=16	=16	=16	=16	=16	=16	=16	=16	=16
2.r	.	4G\	.	4G\	Ky-	.	4e-\	.	.	4b-\	.	.	2.r	.	.	2.ryy	4e-/	4B-\	.	4b-/	.	2.r	.	2.ryy	.	2.ryy	2.ryy	.	2.ryy	.	2.ryy	.	2.ryy	.	2.ryy	2.ryy	.
.	.	8G\	.	8G\	-ri-	.	8e-\	.	.	8e-\	.	.	.	.	.	.	8e-/	8B-\	.	8e-/	.	.	.	.	.	.	.	.	.	.	.	.	.	.	.	.	.
.	.	8.A-\L	.	8.A-\L	-e	.	8.d\L	.	.	8.f\L	.	.	.	.	.	.	8.d/L	4.B-\	.	8.f/L	.	.	.	.	.	.	.	.	.	.	.	.	.	.	.	.	.
.	.	16G\K	.	16G\K	.	.	16e-\K	.	.	16g\K	.	.	.	.	.	.	16e-/K	.	.	16g/K	.	.	.	.	.	.	.	.	.	.	.	.	.	.	.	.	.
.	.	8F\J	.	8F\J	.	.	8d\J	.	.	8a-\J	.	.	.	.	.	.	8d/J	.	.	8a-/J	.	.	.	.	.	.	.	.	.	.	.	.	.	.	.	.	.
=17	=17	=17	=17	=17	=17	=17	=17	=17	=17	=17	=17	=17	=17	=17	=17	=17	=17	=17	=17	=17	=17	=17	=17	=17	=17	=17	=17	=17	=17	=17	=17	=17	=17	=17	=17	=17	=17
2.r	.	4G\	.	4G\	Ky-	.	4e-\	.	.	4b-\	.	.	2.r	.	.	2.ryy	4e-/	4B-\	.	4b-/	.	2.r	.	2.ryy	.	2.ryy	2.ryy	.	2.ryy	.	2.ryy	.	2.ryy	.	2.ryy	2.ryy	.
.	.	8G\	.	8G\	-ri-	.	8e-\	.	.	8e-\	.	.	.	.	.	.	8e-/	8B-\	.	8e-/	.	.	.	.	.	.	.	.	.	.	.	.	.	.	.	.	.
.	.	8.A-\L	.	8.A-\L	-e	.	8.d\L	.	.	8.f\L	.	.	.	.	.	.	8.d/L	4B-\	.	8.f/L	.	.	.	.	.	.	.	.	.	.	.	.	.	.	.	.	.
.	.	16G\	.	16G\Jk	.	.	16e-\Jk	.	.	16g\Jk	.	.	.	.	.	.	16e-/K	.	.	16g/K	.	.	.	.	.	.	.	.	.	.	.	.	.	.	.	.	.
.	.	8F\J	.	8F\	e-	.	8d\	.	.	8a-\	.	.	.	.	.	.	8d/J	8B-\	.	8a-/J	.	.	.	.	.	.	.	.	.	.	.	.	.	.	.	.	.
=18	=18	=18	=18	=18	=18	=18	=18	=18	=18	=18	=18	=18	=18	=18	=18	=18	=18	=18	=18	=18	=18	=18	=18	=18	=18	=18	=18	=18	=18	=18	=18	=18	=18	=18	=18	=18	=18
*	*	*	*	*	*	*	*	*	*	*	*	*	*	*	*	*	*	*	*	*	*	*	*	*	*	*	*^	*	*^	*	*^	*	*	*	*	*	*
!	!	!	!LO:HP:b	!	!	!	!	!	!	!	!	!	!	!	!	!	!	!	!	!	!LO:HP:a	!	!	!	!	!	!	!	!LO:DY:a:rj	!	!	!LO:DY:a:rj	!	!	!LO:HP:b	!	!	!	!	!
!	!	!	!	!	!	!	!	!	!	!	!	!	!	!	!	!	!	!	!	!	!	!	!	!	!	!	!	!	!LO:HP:b	!	!	!LO:HP:b	!	!	!	!	!	!	!	!
2.r	.	4.G\	<	4.G\	-le-	.	4.e-\	.	.	4.b-\	.	.	2.r	.	.	2.ryy	4.e-/	4.B-\	.	4.b-/	<	2.r	.	2.r	.	2.r	(>4.e-/	2.G\	p <	2.g/	2.g\	p <	4.b-/	4.g\	<	2.ryy	.	2.ryy	2.ryy	.
.	.	4.G\	[[	4.G\	-i-	.	4.d\	.	.	4.bn\	.	.	.	.	.	.	4.f/	4.d\	.	4.bn/	[[	.	.	.	.	.	4.d/)	.	[[	.	.	[[	4.bX/	4.f\	[[	.	.	.	.	.
*	*	*	*	*	*	*	*	*	*	*	*	*	*	*	*	*	*v	*v	*	*	*	*	*	*	*	*	*	*	*	*	*	*	*	*	*	*	*	*	*	*
!!LO:PB:g=original
=19	=19	=19	=19	=19	=19	=19	=19	=19	=19	=19	=19	=19	=19	=19	=19	=19	=19	=19	=19	=19	=19	=19	=19	=19	=19	=19	=19	=19	=19	=19	=19	=19	=19	=19	=19	=19	=19	=19	=19
*	*	*	*	*	*	*	*	*	*	*	*	*	*	*	*	*	*	*	*	*	*	*	*	*	*	*	*	*	*	*	*	*	*	*	*^	*	*	*	*
*	*	*	*	*	*	*	*	*	*	*	*	*	*2\right	*	*	*	*	*	*	*	*	*	*	*	*	*	*	*	*	*	*	*	*	*	*	*	*	*	*	*
4r	.	4.A-\	.	4.A-\	-son	.	4.e-\	.	.	4.cc\	.	.	4r	.	.	2.ryy	4.e-\	.	4.cc\	.	4r	.	4.ryy	.	2.ryy	4.c/	4.A-\	.	4.a-/	4.e-\	.	4.cc 4.e-/	4.ryy	.	4r	4.rAyy	.	2.ryy	4r	.
8r	.	.	.	.	.	.	.	.	.	.	.	.	8r	.	.	.	.	.	.	.	8r	.	.	.	.	.	.	.	.	.	.	.	.	.	8r	.	.	.	8r	.
4.An^<\	.	4An^<\	.	4.An^>\	e-	.	4.e-\	.	.	4.g-X^<\	.	.	4.cc^>\	e-	.	.	4.e-\	.	4.f#X/	.	4.cc^>\	.	4.c 4.F#X 4.AAn\	.	.	4.c^>/	4.An\	.	4.g-X/	4.e-\	.	4.ee-/	4.cc^<\	.	4.ff#X/	4.cc^<\	.	.	4.ccc^<\	.
.	.	8r	.	.	.	.	.	.	.	.	.	.	.	.	.	.	.	.	.	.	.	.	.	.	.	.	.	.	.	.	.	.	.	.	.	.	.	.	.	.
*	*	*	*	*	*	*	*	*	*	*	*	*	*	*	*	*	*	*	*	*	*	*	*	*	*	*	*	*	*v	*v	*	*	*	*	*	*	*	*	*	*
=20	=20	=20	=20	=20	=20	=20	=20	=20	=20	=20	=20	=20	=20	=20	=20	=20	=20	=20	=20	=20	=20	=20	=20	=20	=20	=20	=20	=20	=20	=20	=20	=20	=20	=20	=20	=20	=20	=20	=20
*	*	*	*	*	*	*	*	*	*	*	*	*	*	*	*	*	*	*	*	*	*	*	*^	*	*	*	*	*	*	*	*	*	*	*	*	*	*	*	*
!	!LO:DY:b	!LO:TX:t=P:problem:dwie ukośne kreski - unisono z kontrabasem (t. 20-29)	!LO:DY:b	!	!	!LO:DY:a	!	!	!	!	!	!	!	!	!	!	!	!	!	!	!	!	!	!	!LO:DY:a:rj	!	!	!	!	!	!	!	!	!	!	!	!	!	!	!
!	!	!	!	!	!	!LO:DY:a:rj	!	!	!	!	!	!LO:DY:b:rj	!	!	!LO:DY:b:rj	!	!	!	!	!	!	!LO:DY:b:rj	!	!	!	!	!	!	!LO:DY:b:rj	!	!LO:DY:b:rj	!	!	!LO:DY:b:rj	!	!	!LO:DY:b:rj	!	!	!
(>4.B-\	f	(>4.B-yy\	f	(>4.B-\	-lei-	f	4.e-\	.	.	(>4.gn\	.	f	(>(>8b-\	-le-	f	2.ryy	(>4.e-\	.	(<4.g/	.	8b-'>\	f	4.ryy	4.B- 4.G 4.BB-\	f	2.ryy	4.B-/	4.B-\	f	4.gn 4.e-\	f	(>4.ee-/	2.b-\	f	N(>4.gg/	8b-\	f	2.ryy	8bb-`>\	.
.	.	.	.	.	.	.	.	.	.	.	.	.	4ee-\	-i-	.	.	.	.	.	.	4ee-'>\	.	.	.	.	.	.	.	.	.	.	.	.	.	.	[>4ee-\	.	.	[>4eee-`>\	.
4.BB-/)	.	4.BB-/yy)	.	4.BB-/)	.	.	4.f\	.	.	4.a-\)	.	.	8ee-\L)	.	.	.	4.f\	.	4.a-/	.	(>8ee-\L	.	4.A-/	4.F 4.BB-\	.	.	4.B- 4.BB-\	4.rCCyy	.	4.f 4.B-/	.	4.ff/	.	.	4.aa-/	8ee-\L]	.	.	(>8eee-\L]	.
.	.	.	.	.	.	.	.	.	.	.	.	.	16dd\L	.	.	.	.	.	.	.	16dd\L	.	.	.	.	.	.	.	.	.	.	.	.	.	.	16dd\L	.	.	16ddd\L	.
.	.	.	.	.	.	.	.	.	.	.	.	.	16cc\J	.	.	.	.	.	.	.	16cc\J	.	.	.	.	.	.	.	.	.	.	.	.	.	.	16cc\J	.	.	16ccc\J	.
.	.	.	.	.	.	.	.	.	.	.	.	.	8dd`>\J	.	.	.	.	.	.	.	8dd\J	.	.	.	.	.	.	.	.	.	.	.	.	.	.	8dd\JN)	.	.	8ddd\J	.
=21	=21	=21	=21	=21	=21	=21	=21	=21	=21	=21	=21	=21	=21	=21	=21	=21	=21	=21	=21	=21	=21	=21	=21	=21	=21	=21	=21	=21	=21	=21	=21	=21	=21	=21	=21	=21	=21	=21	=21	=21
!	!	!	!	!	!	!	!	!	!	!	!	!	!	!	!	!	!	!	!	!	!	!	!	!	!	!	!	!	!	!	!	!	!	!	!	!	!	!	!LO:TX:i:a:t=Col Vo. Io. 8va	!
!	!LO:DY:b:rj	!	!LO:DY:b:rj	!	!	!	!	!	!	!	!	!	!	!	!	!	!	!	!	!	!	!	!	!	!	!	!	!	!	!	!	!	!	!	!	!	!	!	!LO:TX:t=P:problem:t. 21-29 zapisane jako powtórzenie 1 skrzypiec	!
4E-\	p	4E-yy\	p	4E-\	-son	.	4e-\	.	.	4g\	.	.	4ee-\)	-son	.	2.ryy	4e-\)	.	4g/)	.	4ee-\)	.	4G/	4E-\	.	2.ryy	4B- 4E-\	4.ryy	.	4e- 4G/	.	4ee-/)	4b-\	.	4gg/	4ee-\	.	2.ryy	4eee-yy\)	.
!	!	!	!	!	!	!LO:DY:a:rj	!	!	!	!	!	!	!	!	!LO:DY:b	!	!	!	!	!LO:DY:b	!	!LO:DY:b	!	!	!	!	!	!	!	!	!	!	!	!	!	!	!	!	!	!
!	!	!	!	!	!	!	!	!	!	!	!	!	!	!	!	!	!	!	!	!	!	!	!	!	!	!	!	!	!LO:DY:b	!	!	!	!	!	!	!	!	!	!	!
8C/	.	8Cyy/	.	8C/	e-	p	8e-\	.	.	8g\	.	.	8ee-\	e-	p	.	8e-\	.	8g/	p	8ee-\	p	8r	8rEEyy	.	.	8e- 8C\	.	p	8r	.	8ee-`>/	8g\	.	8r	8rAyy	.	.	8eee-yy\	p
4D\	.	4Dyy\	.	4D/	-lei-	.	4B-\	.	.	4g\	.	.	4dd\	-le-	.	.	4B-/	.	4g/	.	4dd\	.	4r	4rCCyy	.	.	4B-/	4D\	.	4r	.	(>4dd/	4g\	.	4r	4rAyy	.	.	4dddyy\	.
8E-\	.	8E-yy\	.	8E-\	.	.	8c\	.	.	8g\	.	.	8cc\	-i-	.	.	8c/	.	8g/	.	8cc\	.	8r	8rCCyy	.	.	8c/	8E-\	.	8r	.	8cc/)	8g\	.	8r	8rAyy	.	.	8cccyy\	.
*	*	*	*	*	*	*	*	*	*	*	*	*	*	*	*	*	*	*	*	*	*	*	*v	*v	*	*	*v	*v	*	*	*	*	*	*	*v	*v	*	*	*	*
=22	=22	=22	=22	=22	=22	=22	=22	=22	=22	=22	=22	=22	=22	=22	=22	=22	=22	=22	=22	=22	=22	=22	=22	=22	=22	=22	=22	=22	=22	=22	=22	=22	=22	=22	=22	=22	=22
4F\	.	4Fyy\	.	4F\	-son	.	4d\	.	.	4f\	.	.	4b-\	-son	.	2.ryy	4d\	.	4f/	.	4b-\	.	2.r	.	2.ryy	4d 4F\	.	4r	.	4b-/	4f\	.	2.ryy	.	2.ryy	4bb-yy\	.
8F\	.	8Fyy\	.	8F\	e-	.	8d\	.	.	8f\	.	.	8b-\	e-	.	.	8d\	.	8f/	.	8b-\	.	.	.	.	8d 8F\	.	8r	.	(>8b-/	8f\	.	.	.	.	8bb-yy\	.
!	!	!	!	!	!	!	!	!	!	!	!	!	!	!	!	!	!	!	!	!	!	!	!	!	!	!	!	!	!LO:DY:b:rj	!	!	!	!	!	!	!	!
4F\	.	4Fyy\	.	4F\	-le-	.	4c\	.	.	4e-\	.	.	(>8b-\L	-le-	.	.	4c/	.	4e-/	.	(<8b-/L	.	.	.	.	4c 4F\	.	4.f 4.e-/	p	8b-/L	4e-\	.	.	.	.	(<8bb-yy/L	.
.	.	.	.	.	.	.	.	.	.	.	.	.	16an\L	.	.	.	.	.	.	.	16an/L	.	.	.	.	.	.	.	.	16a/L	.	.	.	.	.	16aanyy/L	.
.	.	.	.	.	.	.	.	.	.	.	.	.	16g\JJ)	.	.	.	.	.	.	.	16g/JJ)	.	.	.	.	.	.	.	.	16g/JJ	.	.	.	.	.	16ggyy/JJ)	.
8F\	.	8Fyy\	.	8F\	-i-	.	8c\	.	.	8e-\	.	.	8a\	-i-	.	.	8c/	.	8e-/	.	8a/	.	.	.	.	8c 8F\	.	.	.	8a/)	8e-\	.	.	.	.	8aayy/	.
=23	=23	=23	=23	=23	=23	=23	=23	=23	=23	=23	=23	=23	=23	=23	=23	=23	=23	=23	=23	=23	=23	=23	=23	=23	=23	=23	=23	=23	=23	=23	=23	=23	=23	=23	=23	=23	=23
*	*	*	*	*	*	*	*	*	*	*	*	*	*	*	*	*	*	*	*	*	*	*	*	*	*	*	*	*^	*	*	*	*	*	*	*	*	*
!	!LO:HP:b	!	!LO:HP:b	!	!	!	!	!	!	!	!	!LO:HP:a	!	!	!	!	!	!	!	!	!	!LO:HP:b	!	!	!	!	!	!	!	!	!	!	!	!	!	!	!	!LO:HP:b
4G\	<	4Gyy\	<	4G\	-son	.	4B-\	.	.	4d\	.	<	4b-\	-son	.	2.ryy	4B-/	.	4d/	.	4b-/	<	4r	.	2.ryy	4B- 4G\	.	4f 4B-/	4rCyy	.	4b-/	4d\	.	2.ryy	.	2.ryy	4bb-yy/	<
!	!	!	!	!	!	!	!	!	!	!	!	!	!	!	!	!	!	!	!	!	!	!	!	!	!	!	!	!	!	!	!	!	!LO:HP:a	!	!	!	!	!
.	.	.	.	.	.	.	.	.	.	.	.	.	.	.	.	.	.	.	.	.	.	.	.	.	.	.	.	.	.	.	.	.	<	.	.	.	.	.
!	!	!	!	!	!	!LO:HP:a	!	!	!	!	!	!	!	!	!	!	!	!	!	!	!	!	!	!	!	!	!	!	!	!	!	!	!	!	!	!	!	!
8F\	.	8Fyy\	.	8F\	e-	<	8d\	.	.	8g\	.	.	8bn\	e-	.	.	8d\	.	8g/	.	8bn/	.	8r	.	.	8d 8F\	.	8r	8rCyy	.	8bX/	8g\	.	.	.	.	8bbnyy/	.
4E-\	.	4E-yy\	.	4E-\	-le-	.	4e-\	.	.	4g\	.	.	4cc\	-le-	.	.	4e-\	.	4g/	.	4cc\	.	4r	.	.	4e- 4E-\	.	4r	4rCyy	.	4cc/	4g\	.	.	.	.	4cccyy\	.
8C/	[[	8Cyy/	[[	8C/	-i-	[[	8e-\	.	.	8g\	.	[[	8ee-\	-i-	.	.	8e-\	.	8g/	.	8ee-\	[[	8c 8G 8C\	.	.	8e- 8C\	.	8g/	8e-\	.	8ee-/	8g\	[	.	.	.	8eee-yy\	[[
!!LO:PB:g=original
=24	=24	=24	=24	=24	=24	=24	=24	=24	=24	=24	=24	=24	=24	=24	=24	=24	=24	=24	=24	=24	=24	=24	=24	=24	=24	=24	=24	=24	=24	=24	=24	=24	=24	=24	=24	=24	=24	=24
*	*	*	*	*	*	*	*	*	*	*	*	*	*	*	*	*	*	*	*	*	*	*	*	*	*	*^	*	*	*	*	*	*	*	*^	*	*	*	*
!	!	!	!	!	!	!	!	!	!	!	!	!	!	!	!	!	!LO:TX:i:a:t=Alto	!	!	!	!LO:TX:i:a:t=Wio.	!LO:DY:b:rj	!LO:TX:i:a:t=Tromboni	!	!	!	!	!	!	!	!	!	!	!	!	!	!	!	!	!
!	!	!	!	!	!	!	!	!	!	!	!	!	!	!	!	!	!LO:TX:a:t=P:problem:napis "Alto" przed pięciolinią	!	!	!	!LO:TX:a:t=P:problem:napis "Wio." przed pięciolinią	!	!	!	!	!	!	!LO:DY:b:rj	!	!	!	!	!	!	!	!	!LO:DY:b:t=f.:rj	!	!	!
[>4.F\	.	[>4.Fyy\	.	[>4.F\	-son	.	4.B-\	.	.	4.f\	.	.	[>4.dd\	-son	.	2.ryy	4.B-/	.	[<4.f/	.	(>4.dd\	f	(>4.d 4.B- 4.F\	.	2.ryy	[>4.B-/	4.F\	f	[>4.f [<4.B-/	4.ryy	.	[>4.dd/	4.f\	.	[>4.bb- [>4.dd\	4.rFyy	f	2.ryy	(>4.dddyy\	f
4F\]	.	4F\yy]	.	4F\]	.	.	4B-\	.	.	4f\	.	.	4dd\]	.	.	.	4B-/	.	4f/]	.	4dd\	.	4d 4B- 4F\	.	.	4B-/]	4F\	.	4f] 4B-/]	4rAAyy	.	4dd/]	4f\	.	4bb-/]	4dd\]	.	.	4dddyy\	.
8F\	.	8Fyy\	.	8F\	e-	.	8An\	.	.	8e-\	.	.	8cc\	e-	.	.	8A-/	.	8e-/	.	8cc\)	.	8c 8An 8FF\)	.	.	8An/	8F\	.	8f/	8e-\	.	8cc/	8e-\	.	8aan/	8ee-\	.	.	8cccyy\)	.
=25	=25	=25	=25	=25	=25	=25	=25	=25	=25	=25	=25	=25	=25	=25	=25	=25	=25	=25	=25	=25	=25	=25	=25	=25	=25	=25	=25	=25	=25	=25	=25	=25	=25	=25	=25	=25	=25	=25	=25	=25
!	!	!	!	!	!	!	!	!	!	!	!	!	!	!	!	!	!	!	!	!	!	!	!	!	!	!	!	!LO:HP:b	!	!	!	!	!	!LO:HP:b	!	!	!	!	!	!
(>4G\	.	(>4Gyy\	.	4G\	-le-	.	4B-\	.	.	4d\	.	.	4b-\	-le-	.	2.ryy	4B-/	.	(<4d/	.	(>4b-\	.	4B- 4G 4GG\	.	2.ryy	4B-/	4G\	<	4f 4B-/	4.ryy	.	4b- 4B-/	4ryy	<	4bb-/	4dd\	.	2.ryy	(>4bb-yy\	.
!	!	!	!	!	!	!	!	!	!	!	!	!	!	!	!	!	!	!	!	!	!	!LO:HP:b	!	!	!	!	!	!	!	!	!	!	!	!	!	!	!	!	!	!LO:HP:b
8F\)	.	8Fyy\)	.	8F\	-i-	.	8d\	.	.	8g\	.	.	8bn\	-i-	.	.	8d\	.	8g/)	.	8bn\)	<	8r	.	.	8d 8F\	8rCCyy	.	8r	.	.	8b-X/	8g\	.	8r	8rAyy	.	.	8bbnyy\)	<
(<8.E-/L	.	(<8.E-yy/L	.	8.E-/L	-son	.	8.e-\L	.	.	4g\	.	.	(>8.cc\L	-son	.	.	(>8.e-\L	.	4g/	.	(>8.cc\L	.	4r	.	.	8.e-/L	8.E-\L	.	4r	4rAAyy	.	8.cc/L	4g\	.	4r	4rAyy	.	.	(>8.cccyy\L	.
16D/K	.	16Dyy/	.	16D/Jk	.	.	16Bn\Jk	.	.	.	.	.	16dd\Jk)	.	.	.	16Bn\Jk)	.	.	.	16dd\K	.	.	.	.	16Bn/K	16D\K	.	.	.	.	16dd/K	.	.	.	.	.	.	16dddyy\K	.
8C/J)	.	8Cyy/J)	.	8C/	e-	.	8c\	.	.	8g\	.	.	8ee-\	e-	.	.	8c\	.	8g/	.	8ee-\J)	[[	8e- 8c 8G 8C\	.	.	8c/J	8C\J	[	8g/	8e-\	.	8ee-/J	8g\	[	8ccc 8ee-\	8rFyy	f	.	8eee-yy\J)	[[
*	*	*	*	*	*	*	*	*	*	*	*	*	*	*	*	*	*	*	*	*	*	*	*	*	*	*v	*v	*	*	*	*	*	*	*	*	*	*	*	*	*
*	*	*	*	*	*	*	*	*	*	*	*	*	*	*	*	*	*	*	*	*	*	*	*	*	*	*	*	*v	*v	*	*	*	*	*	*	*	*	*	*
=26	=26	=26	=26	=26	=26	=26	=26	=26	=26	=26	=26	=26	=26	=26	=26	=26	=26	=26	=26	=26	=26	=26	=26	=26	=26	=26	=26	=26	=26	=26	=26	=26	=26	=26	=26	=26	=26	=26
!	!	!	!	!	!	!	!	!	!	!	!	!	!	!	!	!	!	!	!	!	!	!	!	!	!	!	!LO:DY:b	!	!	!	!	!LO:DY:b	!	!	!	!	!	!
4.F\	.	4.Fyy\	.	4.F\	-le-	.	4.B-X\	.	.	4.f\	.	.	4.dd\	-le-	.	2.ryy	4.B-X/	.	4.f/	.	4.dd\	f	4.d 4.B- 4.F\	.	2.ryy	4.d 4.F\	f	4.f 4.B-/	.	4.dd/	4.b-\	f	4.bb-/	4.dd\	.	2.ryy	4.dddyy\	f
4.F\	.	4.Fyy\	.	4.F\	-i-	.	4.B-\	.	.	4.f\	.	.	4.dd\	-i-	.	.	4.B-/	.	4.f/	.	4.dd\	.	4.d 4.B- 4.F\	.	.	4.d 4.F\	.	4.f 4.B-/	.	4.dd/	4.b-\	.	[>4.bb-/	4.dd\	.	.	4.dddyy\	.
=27	=27	=27	=27	=27	=27	=27	=27	=27	=27	=27	=27	=27	=27	=27	=27	=27	=27	=27	=27	=27	=27	=27	=27	=27	=27	=27	=27	=27	=27	=27	=27	=27	=27	=27	=27	=27	=27	=27
*	*	*	*	*	*	*	*	*	*	*	*	*	*	*	*	*	*	*	*	*	*	*	*^	*	*	*	*	*^	*	*	*	*	*	*	*	*	*	*
*	*	*	*	*	*	*	*	*	*	*	*	*	*	*	*	*	*	*	*	*	*	*	*	*^	*	*	*	*	*	*	*	*	*	*	*	*	*	*	*	*
4F\	.	4Fyy\	.	4F\	-son	.	(>8.B-\L	.	.	4f\	.	.	4cc\	-son	.	2.ryy	(<8.B-/L	.	4f/	.	4cc\	.	4.c/	8.B-/L	4F\	.	2.ryy	4c 4F\	.	4f/	4f\	.	4cc/	8.b-\L	.	8.bb-/L]	4cc\	.	2.ryy	4cccyy\	.
.	.	.	.	.	.	.	16An\Jk)	.	.	.	.	.	.	.	.	.	16An/K)	.	.	.	.	.	.	16An/K	.	.	.	.	.	.	.	.	.	16a\K	.	16aan/K	.	.	.	.	.
8F\	.	8Fyy\	.	8F\	e-	.	8G\	.	.	8f\	.	.	8cc\	e-	.	.	8G`</J	.	8f/	.	8cc\	.	.	8G/J	8F\	.	.	8c 8F\	.	8f/	8f\	.	8cc/	8g\J	.	8gg/J	8cc\	.	.	8cccyy\	.
4.FF/	.	4.FFyy/	.	4.FF/	-lei-	.	4.An\	.	.	4.c/	.	.	4.ff\	-lei-	.	.	4.An/	.	4.c/	.	4.ff\	.	4.c 4.A/	4.F\	4.ryy	.	.	4.c 4.FF\	.	4.f/	4.f\	.	4.cc/	4.a\	.	4.aan/	4.ff\	.	.	4.fffyy\	.
*	*	*	*	*	*	*	*	*	*	*	*	*	*	*	*	*	*	*	*	*	*	*	*	*v	*v	*	*	*	*	*v	*v	*	*	*	*	*	*	*	*	*	*
=28	=28	=28	=28	=28	=28	=28	=28	=28	=28	=28	=28	=28	=28	=28	=28	=28	=28	=28	=28	=28	=28	=28	=28	=28	=28	=28	=28	=28	=28	=28	=28	=28	=28	=28	=28	=28	=28	=28	=28
4BB-/	.	4BB-yy/	.	4BB-/	-son	.	4B-\	.	.	4d\	.	.	4b-\	-son	.	2.ryy	4B-/	.	4d/	.	4b-\	.	4d 4B-/	4BB-\	.	2.ryy	4d 4BB-\	.	4f 4B-/	.	4dd/	4b-\	.	4bb-/	4dd\	.	2.ryy	4bb-yy\	.
!	!	!	!	!	!	!	!	!	!	!	!	!	!	!	!	!	!	!	!	!	!	!LO:DY:b:rj	!	!	!	!	!	!	!	!	!	!	!	!	!	!LO:DY:a:rj	!	!	!
8r	.	8ryy	.	8r	.	.	8r	.	.	8a-\	.	.	8cc\	Chri-	.	.	8r	.	8a-`>/	.	8cc`>\	p	8r	8rCCyy	.	.	8r	.	8r	.	8r	8rGyy	.	8aa-`>/	8rg	p	.	8cccyy`>\	.
4r	.	4ryy	.	4r	.	.	4r	.	.	4g\	.	.	4b-\	-ste	.	.	4r	.	(>4g/	.	(>4b-\	.	4r	4rCCyy	.	.	4r	.	4r	.	4r	4rGyy	.	(>4gg/	4rg	.	.	(>4bb-yy\	.
8r	.	8ryy	.	8r	.	.	8r	.	.	8en\	.	.	8g\	e-	.	.	8r	.	8en/	.	8g/	.	8r	8rCCyy	.	.	8r	.	8r	.	8r	8rGyy	.	8een/)	8rg	.	.	8ggyy/	.
*	*	*	*	*	*	*	*	*	*	*	*	*	*	*	*	*	*	*	*	*	*	*	*v	*v	*	*	*	*	*	*	*v	*v	*	*	*	*	*	*	*
=29	=29	=29	=29	=29	=29	=29	=29	=29	=29	=29	=29	=29	=29	=29	=29	=29	=29	=29	=29	=29	=29	=29	=29	=29	=29	=29	=29	=29	=29	=29	=29	=29	=29	=29	=29	=29	=29
2.r	.	2.ryy	.	2.r	.	.	2.r	.	.	(>4f\	.	.	(>4a-\	-lei-	.	2.ryy	2.r	.	4f/)	.	4a-/)	.	2.r	.	2.ryy	2.r	.	2.r	.	2.r	.	4ff/	2.rg	.	2.ryy	4aa-yy/)	.
.	.	.	.	.	.	.	.	.	.	8g\)	.	.	8b-\)	.	.	.	.	.	8g`>/	.	8b-`>/	.	.	.	.	.	.	.	.	.	.	8gg`>/	.	.	.	8bb-`>yy/	.
!	!	!	!	!	!	!	!	!	!	!	!	!	!	!	!	!	!	!	!LO:TX:a:t=P:problem:brak zakończenia łuku	!	!LO:TX:a:t=P:problem:brak zakończenia łuku	!	!	!	!	!	!	!	!	!	!	!	!	!	!	!LO:TX:a:t=P:problem:brak zakończenia łuku	!
.	.	.	.	.	.	.	.	.	.	4f\	.	.	4a-\	-son	.	.	.	.	(>4f/	.	(>4a-/	.	.	.	.	.	.	.	.	.	.	(>4ff/	.	.	.	(>4aa-yy/	.
.	.	.	.	.	.	.	.	.	.	8d\	.	.	8f/	Chri-	.	.	.	.	8d/	.	8f/	.	.	.	.	.	.	.	.	.	.	8dd/)	.	.	.	8ffyy/	.
!!LO:PB:g=original
=30	=30	=30	=30	=30	=30	=30	=30	=30	=30	=30	=30	=30	=30	=30	=30	=30	=30	=30	=30	=30	=30	=30	=30	=30	=30	=30	=30	=30	=30	=30	=30	=30	=30	=30	=30	=30	=30
2.r	.	2.r	.	2.r	.	.	4r	.	.	4e-\	ste	.	4g/	-ste	.	2.ryy	4r	.	4e-/)	.	4g/)	.	2.r	.	2.r	2.r	.	2.r	.	4r	.	4ee-/	2.r	.	2.ryy	4gg\)	.
.	.	.	.	.	.	.	8c\	Chri-	.	8a-\	Chri-	.	8r	.	.	.	8c/	.	8a-/	.	8r	.	.	.	.	.	.	.	.	8cc`>/	.	8aa-`>/	.	.	.	8r	.
.	.	.	.	.	.	.	4B-\	-ste	.	4g\	-ste	.	4r	.	.	.	4B-/	.	4g/	.	4r	.	.	.	.	.	.	.	.	(>4b-/	.	(>4gg/	.	.	.	4r	.
.	.	.	.	.	.	.	8G/	e-	.	8en\	e-	.	8r	.	.	.	8G/	.	8en/	.	8r	.	.	.	.	.	.	.	.	8g/	.	8een/	.	.	.	8r	.
=31	=31	=31	=31	=31	=31	=31	=31	=31	=31	=31	=31	=31	=31	=31	=31	=31	=31	=31	=31	=31	=31	=31	=31	=31	=31	=31	=31	=31	=31	=31	=31	=31	=31	=31	=31	=31	=31
2.r	.	4r	.	4r	.	.	4A-\	-le-	.	4f\	-le-	.	2.r	.	.	2.ryy	4A-/	.	4f/	.	2.r	.	2.ryy	.	2.r	2.r	.	2.r	.	4a-/)	.	4ff/)	2.rg	.	2.ryy	2.r	.
.	.	8r	.	8r	.	.	8B-\	-i-	.	8g\	-i-	.	.	.	.	.	8B-/	.	8g/	.	.	.	.	.	.	.	.	.	.	8b-`>/	.	8gg`>/	.	.	.	.	.
.	.	4r	.	4r	.	.	(>4A-\	-son	.	(>4f\	-son	.	.	.	.	.	(<4A-/	.	(<4f/	.	.	.	.	.	.	.	.	.	.	(>4a-/	.	(>4ff/	.	.	.	.	.
.	.	(<8BB-/	.	(<8BB-/	Ky-	.	8F/)	.	.	8d\)	.	.	.	.	.	.	8F/	.	8d/	.	.	.	.	.	.	.	.	.	.	8f/	.	8dd/	.	.	.	.	.
=32	=32	=32	=32	=32	=32	=32	=32	=32	=32	=32	=32	=32	=32	=32	=32	=32	=32	=32	=32	=32	=32	=32	=32	=32	=32	=32	=32	=32	=32	=32	=32	=32	=32	=32	=32	=32	=32
2.r	.	4E-\)	.	4E-\)	.	.	4G/	.	.	4e-\	Ky-	.	2.r	.	.	2.ryy	4G/)	.	4e-/)	.	2.r	.	2.ryy	.	2.r	2.r	.	2.r	.	4g/)	.	4ee-/)	2.r	.	2.ryy	2.r	.
.	.	8E-\	.	8E-\	-ri-	.	8G/	.	.	8B-/	-ri-	.	.	.	.	.	8G/	.	8B-/	.	.	.	.	.	.	.	.	.	.	8r	.	8rdd	.	.	.	.	.
.	.	4E-\	.	4E-\	-e	.	4A-/	.	.	4c/	-e	.	.	.	.	.	4A-/	.	4c/	.	.	.	.	.	.	.	.	.	.	4r	.	4rdd	.	.	.	.	.
.	.	8E-\	.	8E-\	e	.	8F/	.	.	8d\	e-	.	.	.	.	.	8F/	.	8d/	.	.	.	.	.	.	.	.	.	.	8r	.	8rdd	.	.	.	.	.
*	*	*	*	*	*	*	*	*	*	*	*	*	*	*	*	*	*	*	*	*	*	*	*	*	*	*	*	*	*	*	*	*v	*v	*	*	*	*
=33	=33	=33	=33	=33	=33	=33	=33	=33	=33	=33	=33	=33	=33	=33	=33	=33	=33	=33	=33	=33	=33	=33	=33	=33	=33	=33	=33	=33	=33	=33	=33	=33	=33	=33	=33	=33
2.r	.	4E-\	.	4E-\	.	.	4G/	.	.	4e-\	-le-	.	2.r	.	.	2.ryy	4G/	.	4e-/	.	2.r	.	2.ryy	.	2.r	2.r	.	2.r	.	2.r	.	2.r	.	2.ryy	2.r	.
.	.	8D\	.	8D\	.	.	8B-\	.	.	8f\	-i-	.	.	.	.	.	8B-/	.	8f/	.	.	.	.	.	.	.	.	.	.	.	.	.	.	.	.	.
.	.	4E-\	.	4E-\	.	.	4B-\	.	.	4g\	-son	.	.	.	.	.	4B-/	.	4g/	.	.	.	.	.	.	.	.	.	.	.	.	.	.	.	.	.
.	.	8c\	.	8c\	.	.	8e-\	.	.	8a-\	e-	.	.	.	.	.	8e-\	.	8a-/	.	.	.	.	.	.	.	.	.	.	.	.	.	.	.	.	.
=34	=34	=34	=34	=34	=34	=34	=34	=34	=34	=34	=34	=34	=34	=34	=34	=34	=34	=34	=34	=34	=34	=34	=34	=34	=34	=34	=34	=34	=34	=34	=34	=34	=34	=34	=34	=34
!	!	!	!	!	!	!	!	!	!	!	!	!	!	!	!	!	!	!	!	!	!	!	!	!	!	!	!	!	!	!	!	!LO:TX:a:t=P:problem:dopiski ołówkiem w t. 34-36	!	!	!	!
4r	.	4.B-\	.	4.B-\	.	.	4.e-\	.	.	4.g\	-lei-	.	4r	.	.	2.ryy	4.e-\	.	4.g/	.	4r	.	2.ryy	.	2.r	2.r	.	2.r	.	2.r	.	2.r	.	2.ryy	4r	.
8r	.	.	.	.	.	.	.	.	.	.	.	.	8r	.	.	.	.	.	.	.	8r	.	.	.	.	.	.	.	.	.	.	.	.	.	8r	.
4r	.	(>4B-\	.	4B-\	.	.	4.d\	.	.	4.f\	-son	.	4r	.	.	.	4.d\	.	4.f/	.	4r	.	.	.	.	.	.	.	.	.	.	.	.	.	4r	.
!	!	!	!	!	!	!	!	!	!	!	!	!	!LO:TX:a:t=P:problem:niejednoznaczny zapis ligatury (bądź łuku)	!	!	!	!	!	!	!	!	!	!	!	!	!	!	!	!	!	!	!	!	!	!	!
8A-\	.	8A-\)	.	8A-\	.	.	.	.	.	.	.	.	[>8b-\	Ky-	.	.	.	.	.	.	[>8b-\	.	.	.	.	.	.	.	.	.	.	.	.	.	[>8bb-\	.
=35	=35	=35	=35	=35	=35	=35	=35	=35	=35	=35	=35	=35	=35	=35	=35	=35	=35	=35	=35	=35	=35	=35	=35	=35	=35	=35	=35	=35	=35	=35	=35	=35	=35	=35	=35	=35
*	*	*	*	*	*	*	*	*	*	*	*	*	*	*	*	*	*	*	*	*	*	*	*	*	*	*	*	*	*	*^	*	*	*	*	*	*
!	!	!LO:TX:t=P:problem:dwie ukośne kreski - unisono z kontrabasem (t. 35-68)	!	!	!	!	!	!	!	!	!	!	!	!	!	!	!	!	!	!	!	!	!	!	!	!	!	!	!	!	!	!	!	!	!	!	!
4G\	.	4Gyy\	.	4G\	.	.	4e-\	.	.	4b-\	Ky-	.	4b-\]	.	.	2.ryy	4e-\	.	4b-/	.	4b-\]	.	2.ryy	.	2.r	4G 4GG\	.	4r	.	4b-/	4e-\	.	2.r	.	2.ryy	4bb-\]	.
8G\	.	8Gyy\	.	8G\	.	.	8B-\	.	.	8e-\	-ri-	.	8ee-\	-ri-	.	.	8B-/	.	8e-/	.	8ee-\	.	.	.	.	8G 8GG\	.	8r	.	8e-/	8B-\	.	.	.	.	8eee-\	.
4.A-\	.	4.A-yy\	.	4A-\	.	.	4B-\	.	.	8.f\L	-e	.	4dd\	-e	.	.	4B-/	.	8.f/L	.	4dd\	.	.	.	.	4.A- 4.AA-\	.	4.f 4.B-/	.	8.f/L	4B-\	.	.	.	.	4ddd\	.
.	.	.	.	.	.	.	.	.	.	16g\K	.	.	.	.	.	.	.	.	16g/K	.	.	.	.	.	.	.	.	.	.	16g/K	.	.	.	.	.	.	.
.	.	.	.	8A-\	.	.	8d\	.	.	8a-\J	e	.	8b-\	e-	.	.	8d\	.	8a-/J	.	8b-\	.	.	.	.	.	.	.	.	8a-/J	8d\	.	.	.	.	8bb-\	.
!!LO:PB:g=original
=36	=36	=36	=36	=36	=36	=36	=36	=36	=36	=36	=36	=36	=36	=36	=36	=36	=36	=36	=36	=36	=36	=36	=36	=36	=36	=36	=36	=36	=36	=36	=36	=36	=36	=36	=36	=36	=36
!	!	!	!	!	!	!	!	!	!	!	!	!	!	!	!	!	!	!	!	!	!	!	!	!	!	!	!	!	!	!	!	!	!	!	!	!LO:TX:i:a:t=Col Vo. Io. 8va	!
!	!	!	!	!	!	!	!	!	!	!	!	!	!	!	!	!	!	!	!	!	!	!	!	!	!	!	!	!	!	!	!	!	!	!	!	!LO:TX:t=P:problem:t. 36 zapisany jako powtórzenie 1 skrzypiec	!
4.G\	.	4.Gyy\	.	4.G\	.	.	4e-\	.	.	4b-\	.	.	4.ee-\	-lei-	.	2.ryy	4e-\	.	4b-/	.	4.ee-\	.	2.ryy	.	2.r	4.G 4.GG/	.	4g 4e-\	.	4b-/	4e-\	.	2.r	.	2.ryy	4.eee-yy\	.
.	.	.	.	.	.	.	8B-\	.	.	8e-\	.	.	.	.	.	.	8B-/	.	8e-/	.	.	.	.	.	.	.	.	8r	.	8e-/	8B-\	.	.	.	.	.	.
8.A-\L	.	8.A-yy\L	.	8.A-\L	.	.	4B-\	.	.	8.f\L	.	.	4dd\	-son	.	.	4B-/	.	8.f/L	.	4dd\	.	.	.	.	8.A-L 8.AA-/	.	4.f 4.B-/	.	8.f/L	4B-\	.	.	.	.	4dddyy\	.
16G\K	.	16Gyy\K	.	16G\Jk	.	.	.	.	.	16g\K	.	.	.	.	.	.	.	.	16g/K	.	.	.	.	.	.	16GK 16GG/	.	.	.	16g/K	.	.	.	.	.	.	.
8F\J	.	8Fyy\J	.	8F\	.	.	8d\	.	.	8a-\J	.	.	8b-\	e-	.	.	8d\	.	8a-/J	.	8b-\	.	.	.	.	8FJ 8FF/	.	.	.	8a-/J	8d\	.	.	.	.	8bb-yy\	.
=37	=37	=37	=37	=37	=37	=37	=37	=37	=37	=37	=37	=37	=37	=37	=37	=37	=37	=37	=37	=37	=37	=37	=37	=37	=37	=37	=37	=37	=37	=37	=37	=37	=37	=37	=37	=37	=37
4G\	.	4Gyy\	.	4G\	.	.	4e-\	.	.	8b-\L	.	.	4ee-\	-le-	.	2.ryy	4e-\	.	(<8b-/L	.	4ee-\	.	2.ryy	.	2.r	4G 4GG/	.	4e- 4G/	.	8b-'>/L	4e-\	.	4ee-/	.	2.ryy	4eee-\	.
.	.	.	.	.	.	.	.	.	.	8g\J	.	.	.	.	.	.	.	.	8g/	.	.	.	.	.	.	.	.	.	.	(>8g/	.	.	.	.	.	.	.
8GG/	.	8GGyy/	.	8GG/	.	.	8d\	.	.	8f\	.	.	8bn\	-i-	.	.	8d\	.	8f/J)	.	8bn\	.	.	.	.	8G 8GG/	.	8r	.	8f/J)	8d\	.	(>8bn^>/	.	.	(>8bbn^<\	.
4AA-/	.	4AA-yy/	.	4AA-/	.	.	4c\	.	.	4e-\	.	.	4cc\	-son	.	.	4c\	.	4e-/	.	4cc\	.	.	.	.	4A- 4AA-\	.	4r	.	4e-/	4c\	.	[>4.cc/)	.	.	[>4.ccc\)	.
8AA-/	.	8AA-yy/	.	8AA-/	.	.	8c\	.	.	8en\	.	.	8cc\	e-	.	.	8c\	.	8en/	.	8cc\	.	.	.	.	8A- 8AA-\	.	8r	.	8eX/	8c\	.	.	.	.	.	.
=38	=38	=38	=38	=38	=38	=38	=38	=38	=38	=38	=38	=38	=38	=38	=38	=38	=38	=38	=38	=38	=38	=38	=38	=38	=38	=38	=38	=38	=38	=38	=38	=38	=38	=38	=38	=38	=38
4.AAn/	.	4.AAnyy/	.	4.AAn/	.	.	4c\	.	.	4f\	.	.	4cc\	-le-	.	2.ryy	4c\	.	4f/	.	4cc\	.	2.ryy	.	2.r	4.An 4.AAn\	.	2.r	.	4f/	4c\	.	4cc/]	.	2.ryy	4ccc\]	.
!	!LO:HP:b	!	!LO:HP:b	!	!	!	!	!	!	!	!	!	!	!	!	!	!	!	!	!	!	!LO:HP:a	!	!	!	!	!LO:HP:a:t=cresc&colon;	!	!	!	!	!	!	!LO:HP:b:t=crescendo	!	!	!
.	<	.	<	.	.	.	8c#X\	.	.	8f\	.	.	8cc#X\	-i-	.	.	8c#X\	.	8f/	.	8cc#X\	<	.	.	.	.	<	.	.	8f/	8c#X\	.	(>8cc#X/	<	.	(>8ccc#X^<\	.
4BB-/	.	4BB-yy/	.	4BB-/	.	.	4d\	.	.	4f\	.	.	4dd\	-son	.	.	4d\	.	4f/	.	4dd\	.	.	.	.	4B- 4BB-\	.	.	.	4f/	4.d\	.	[>4.dd/)	.	.	[>4.ddd\)	.
8BB-/	.	8BB-yy/	.	8BB-/	.	.	8d\	.	.	8f#X\	.	.	8dd\	e-	.	.	8d\	.	8f#X/	.	8dd\	.	.	.	.	8B- 8BB-\	.	.	.	8f#X/	.	.	.	.	.	.	.
=39	=39	=39	=39	=39	=39	=39	=39	=39	=39	=39	=39	=39	=39	=39	=39	=39	=39	=39	=39	=39	=39	=39	=39	=39	=39	=39	=39	=39	=39	=39	=39	=39	=39	=39	=39	=39	=39
4BB-/	.	4BB-yy/	.	4BB-/	.	.	4d\	.	.	4g\	.	.	4dd\	-le-	.	2.ryy	4d\	.	4g/	.	4dd\	.	2.ryy	.	2.r	4B- 4BB-\	.	2.r	.	4g/	4d\	.	4dd/]	.	2.ryy	4ddd\]	.
8BBn/	.	8BBnyy/	.	8BBn/	.	.	8d\	.	.	8g\	.	.	8dd\	-i-	.	.	8d\	.	8g/	.	8dd\	.	.	.	.	8Bn 8BBn\	.	.	.	8g/	8d\	.	(>8dd^>/	.	.	(>8ddd^<\	.
4C/	.	4Cyy/	.	4C/	.	.	4e-\	.	.	4g\	.	.	4ee-\	-son	.	.	4e-\	.	4g/	.	4ee-\	.	.	.	.	4c 4C\	.	.	.	4g/	4e-\	.	[>4.ee-/)	.	.	4.eee-\	.
8C/	.	8Cyy/	.	8C/	.	.	8r	.	.	8a-\	.	.	8ee-\	e-	.	.	8r	.	8a-/	.	8ee-\	.	.	.	.	8c 8C\	.	.	.	8a-/	8a-\	.	.	.	.	.	.
=40	=40	=40	=40	=40	=40	=40	=40	=40	=40	=40	=40	=40	=40	=40	=40	=40	=40	=40	=40	=40	=40	=40	=40	=40	=40	=40	=40	=40	=40	=40	=40	=40	=40	=40	=40	=40	=40
4.C/	.	4.Cyy/	.	4.C/	.	.	4r	.	.	4a-\	.	.	4ee-\	-le-	.	2.ryy	4r	.	4a-/	.	4ee-\	.	2.ryy	.	2.r	4c 4C\	.	2.r	.	4a-/	4a-\	.	4ee-/]	.	2.ryy	4eee-\)	.
.	.	.	.	.	.	.	8r	.	.	8a-\	.	.	8een\	-i-	.	.	8r	.	8a-/	.	8een\	.	.	.	.	8c 8C\	.	.	.	8a-/	8a-\	.	(>8een^>/	.	.	(>8eeen^<\	.
4D/	.	4Dyy/	.	4D/	.	.	4.B-\	e-	.	4a-\	.	.	4ff\	-son	.	.	4.B-/	.	4a-/	.	4ff\	.	.	.	.	4.d 4.D\	.	.	.	4a-/	4a-\	.	4ff/)	.	.	4fff\)	.
8D/	.	8Dyy/	.	8D/	.	.	.	.	.	8a-\	.	.	8b-\	e-	.	.	.	.	8a-/	.	8b-\	.	.	.	.	.	.	.	.	8b-/	8a-\	.	8aa- 8b-\	.	.	8bb-`>\	.
=41	=41	=41	=41	=41	=41	=41	=41	=41	=41	=41	=41	=41	=41	=41	=41	=41	=41	=41	=41	=41	=41	=41	=41	=41	=41	=41	=41	=41	=41	=41	=41	=41	=41	=41	=41	=41	=41
*	*	*	*	*	*	*	*	*	*	*	*	*	*	*	*	*	*	*	*	*	*	*	*^	*	*	*	*	*	*	*	*	*	*	*	*	*	*
!	!LO:DY:b:rj	!	!LO:DY:b:rj	!	!	!	!	!	!	!	!	!	!	!	!	!	!	!	!	!	!	!LO:DY:a:rj	!LO:TX:t=P:problem:puzony zapisane na linii trąbek	!	!LO:DY:b:rj	!	!	!LO:DY:b:rj	!	!LO:DY:b:rj	!	!	!	!	!LO:DY:b:rj	!	!	!LO:DY:b
4E-/	f	4E-yy/	f	4E-\	.	.	4B-\	-le-	.	4g\	.	.	4gg\	-le-	.	2.ryy	4B-/	.	4g/	.	4gg 4b- 4e-\	f	4g/	4B- 4E-\	f	2.ryy	4e- 4E-\	f	4g 4G/	f	4b-/	4g\	.	4gg 4cc\	f	2.ryy	4ggg\	f
8D/	.	8Dyy/	.	8D\	.	.	8Bn\	-i-	.	8g\	.	.	8ff\	-i-	.	.	8Bn/	.	8g/	.	8ff\	.	8f/	8Bn 8D\	.	.	8d 8D\	.	8g 8G/	.	8bX/	8g\	.	8ff 8bn\	.	.	8fff\	.
4C/	.	4Cyy/	.	4C/	.	.	4c\	-son	.	4g\	.	.	4ee-\	-son	.	.	4c/	.	4g/	.	4ee-\	.	4e-/	4c 4C\	.	.	4c 4C\	.	4g 4G/	.	4cc/	4g\	.	4ee- 4cc\	.	.	4eee-\	.
8BB-X/	.	8BB-Xyy/	.	8BB-X/	.	.	8d\	e	.	8g\	.	.	8dd\	e-	.	.	8d/	.	8g/	.	8dd\	.	8d/	8B-X 8BB-\	.	.	8B- 8BB-\	.	8g 8G/	.	8dd/	8g\	.	8dd\	.	.	8ddd\	.
*	*	*	*	*	*	*	*	*	*	*	*	*	*	*	*	*	*	*	*	*	*	*	*v	*v	*	*	*	*	*	*	*	*	*	*	*	*	*	*
!!LO:PB:g=original
=42	=42	=42	=42	=42	=42	=42	=42	=42	=42	=42	=42	=42	=42	=42	=42	=42	=42	=42	=42	=42	=42	=42	=42	=42	=42	=42	=42	=42	=42	=42	=42	=42	=42	=42	=42	=42	=42
*	*	*	*	*	*	*	*	*	*	*	*	*	*	*	*	*	*	*	*	*	*	*	*	*	*	*	*	*^	*	*	*	*	*^	*	*	*	*
!	!	!	!	!	!	!	!	!	!	!	!	!	!	!	!	!	!	!	!	!	!	!	!LO:TX:a:i:t=Tromboni	!	!	!	!	!	!	!	!	!	!	!	!	!	!	!	!
4.AA-/	.	4.AA-yy/	.	4.AA-/	.	.	(>8.e-\L	.	.	4a-\	.	.	4cc\	-lei	.	2.ryy	8.e-\L	.	4a-/	.	4cc\	.	4.c 4.A- 4.AA-\	.	2.ryy	4.A- 4.AA-\	.	4a-/	8.e-\L	.	4cc/	4a-\	.	4cc/	4cc\	.	2.ryy	4ccc\	.
.	.	.	.	.	.	.	16d\K)	.	.	.	.	.	.	.	.	.	16d\K	.	.	.	.	.	.	.	.	.	.	.	16d\K	.	.	.	.	.	.	.	.	.	.
.	.	.	.	.	.	.	8c\J	.	.	8a-\	.	.	8ff\	.	.	.	8c\J	.	8a-/	.	8ff\	.	.	.	.	.	.	8a-/	8c\J	.	8ff/	8a-\	.	8ff/	8cc\	.	.	8fff\	.
4BB-/	.	4BB-yy/	.	4BB-/	.	.	4B-\	.	.	4g\	.	.	(>4ee-\	-son	.	.	4B-/	.	4g/	.	(>4ee-\	.	4e- 4G 4BB-\	.	.	4B- 4BB-\	.	4g/	4B-\	.	4ee-/	4g\	.	4ee-/	4b-\	.	.	4eee-\	.
8BB-/	.	8BB-yy/	.	8BB-/	.	.	8B-\	.	.	8f\	.	.	8dd\)	.	.	.	8B-/	.	8f/	.	8dd\)	.	8d 8F 8BB-\	.	.	8B- 8BB-\	.	8f/	8B-\	.	8dd/	8f\	.	8dd/	8b-\	.	.	8ddd\	.
=43	=43	=43	=43	=43	=43	=43	=43	=43	=43	=43	=43	=43	=43	=43	=43	=43	=43	=43	=43	=43	=43	=43	=43	=43	=43	=43	=43	=43	=43	=43	=43	=43	=43	=43	=43	=43	=43	=43	=43
*	*	*	*	*	*	*	*	*	*	*	*	*	*	*	*	*	*	*	*	*	*	*	*^	*	*	*	*	*	*	*	*	*	*	*	*	*	*	*	*
4E-\	.	4E-yy\	.	4E-\	.	.	4B-\	.	.	4g\	.	.	4gg\	Ky-	.	2.ryy	4B-/	.	4g/	.	4gg 4b- 4e-\	.	4g/	4G 4E- 4BB-\	.	2.ryy	4e- 4E-\	.	4g/	4B-\	.	4ee-/	4g\	.	4gg 4b-\	4ryy	.	2.ryy	4ggg\	.
8D\	.	8Dyy\	.	8D\	.	.	8Bn\	.	.	8g\	.	.	8ff\	-ri-	.	.	8Bn/	.	8g/	.	8ff\	.	8f/	8Bn 8D\	.	.	8d 8D\	.	8g 8G/	8rCyy	.	8bX/	8g\	.	8ff 8bn\	8rAyy	.	.	8fff\	.
4C/	.	4Cyy/	.	4C/	.	.	4c\	.	.	4g\	.	.	4ee-\	-e	.	.	4c/	.	4g/	.	4ee-\	.	4e-/	4c 4C\	.	.	4c 4C\	.	4g 4G/	4rCyy	.	4cc/	4g\	.	4ee-/	4cc\	.	.	4eee-\	.
8BB-/	.	8BB-yy/	.	8BB-/	.	.	8d\	.	.	8g\	.	.	8dd\	e-	.	.	8d/	.	8g/	.	8dd\	.	8d/	8B-X 8BB-\	.	.	8B- 8BB-\	.	8g 8G/	8rCyy	.	8dd/	8g\	.	8dd/	8dd\	.	.	8ddd\	.
*	*	*	*	*	*	*	*	*	*	*	*	*	*	*	*	*	*	*	*	*	*	*	*v	*v	*	*	*	*	*	*	*	*	*	*	*	*	*	*	*	*
=44	=44	=44	=44	=44	=44	=44	=44	=44	=44	=44	=44	=44	=44	=44	=44	=44	=44	=44	=44	=44	=44	=44	=44	=44	=44	=44	=44	=44	=44	=44	=44	=44	=44	=44	=44	=44	=44	=44	=44
(<4.AA-/	.	(<4.AA-yy/	.	(<4.AA-/	.	.	(>8.e-\L	.	.	(>4.a-\	.	.	(>4cc\	-le-	.	2.ryy	(>8.e-\L	.	(<4.a-/	.	(>4cc\	.	4.c 4.A- 4.AA-\	.	2.ryy	4.A- 4.AA-/	.	4a-/	8.e-\L	.	4cc/	4a-\	.	4cc/	4cc\	.	2.ryy	4ccc\	.
.	.	.	.	.	.	.	16d\K	.	.	.	.	.	.	.	.	.	16d\K	.	.	.	.	.	.	.	.	.	.	.	16d\K	.	.	.	.	.	.	.	.	.	.
.	.	.	.	.	.	.	8c\J	.	.	.	.	.	8ff\	.	.	.	8c\J)	.	.	.	8ff\	.	.	.	.	.	.	8a-/	8c\J	.	8cc/	8a-\	.	8ff/	8cc\	.	.	8fff\	.
4BB-/)	.	4BB-yy/)	.	4BB-/)	.	.	4B-\)	.	.	4g\)	.	.	4ee-\)	.	.	.	4B-/	.	4g/)	.	4ee-\)	.	4e- 4G 4BB-\	.	.	4B- 4BB-\	.	4g/	4B-\	.	4b- 4g\	4rGyy	.	4ee-/	4b-\	.	.	4eee-\	.
!	!	!	!	!	!	!	!	!	!	!	!	!	!	!	!	!	!	!	!	!	!	!	!	!	!	!	!	!	!	!	!	!	!	!	!	!	!	!LO:TX:t=P:problem:po tym takcie wykreślone zostały trzy takty w całej partyturze	!
8BB-/	.	8BB-yy/	.	8BB-/	.	.	8B-\	.	.	8f\	.	.	8dd\	-i-	.	.	8B-/	.	8f/	.	8dd\	.	8d 8B- 8BB-\	.	.	8B- 8BB-\	.	8f/	8B-\	.	8b- 8a-\	8rGyy	.	8dd/	8b-\	.	.	8ddd\	.
*kcancel	*	*kcancel	*	*	*	*	*	*	*	*	*	*	*	*	*	*	*	*	*	*	*	*	*	*	*	*	*	*	*	*	*	*	*	*	*	*	*	*	*
*	*	*	*	*	*	*	*	*	*	*	*	*	*	*	*	*	*	*	*	*	*	*	*	*	*	*	*	*v	*v	*	*	*	*	*v	*v	*	*	*	*
*	*	*	*	*	*	*	*	*	*	*	*	*	*	*	*	*	*	*	*	*	*	*	*	*	*	*	*	*	*	*v	*v	*	*	*	*	*	*
!!LO:PB:g=original
=45	=45	=45	=45	=45	=45	=45	=45	=45	=45	=45	=45	=45	=45	=45	=45	=45	=45	=45	=45	=45	=45	=45	=45	=45	=45	=45	=45	=45	=45	=45	=45	=45	=45	=45	=45	=45
*k[f#c#g#d#]	*	*k[f#c#g#d#]	*	*k[f#c#g#d#]	*	*	*k[f#c#g#d#]	*	*	*k[f#c#g#d#]	*	*	*k[f#c#g#d#]	*	*	*	*k[f#c#g#d#]	*	*k[f#c#g#d#]	*	*k[f#c#g#d#]	*	*k[f#c#g#d#]	*	*k[bea]	*k[f#c#g#d#]	*	*	*	*	*	*k[f#c#g#d#]	*	*	*k[f#c#g#d#]	*
*	*	*	*	*	*	*	*	*	*	*	*	*	*	*	*	*	*	*	*	*	*	*	*	*	*	*	*	*^	*	*	*	*	*	*	*	*
!	!	!	!	!LO:TX:t=P:problem:kolejność znaków En BBn AAn F# C# G# D#	!	!	!LO:TX:t=P:problem:kolejność znaków en Bn An c# F# d# G#	!	!	!LO:TX:t=P:problem:kolejność znaków en Bn An f# c# g# d#	!	!	!LO:TX:t=P:problem:kolejność znaków bn en an cc# f# dd# g#	!	!	!	!	!	!	!	!LO:TX:t=P:problem:kolejność znaków bn een an dd# g# ff# cc#	!	!	!	!	!LO:TX:t=P:problem:kolejność znaków En BBn AAn F# C# G# D#	!	!	!	!	!	!	!	!	!	!LO:TX:t=P:problem:kolejność znaków bn een an dd# g# cc# f#	!
4BB/	.	4BByy/	.	4BB/	.	.	4F#/	.	.	4d#\	.	.	4dd#\	-son	.	2.ryy	4B/	.	4f# 4d#/	.	4dd#\	.	4d# 4F# 4BB\	.	2.ryy	4B 4BB/	.	4g-X/	4e-\	.	4bnX 4f#X/	.	4dd# 4f#/	.	2.ryy	4ddd#\	.
8r	.	8ryy	.	8r	.	.	8r	.	.	8r	.	.	8r	.	.	.	8r	.	8r	.	8r	.	8r	.	.	16BLL 16BB\	.	16g-/LL	16e-\LL	.	16ff#XLL 16b\	.	16bbLL 16dd#\	.	.	8r	.
.	.	.	.	.	.	.	.	.	.	.	.	.	.	.	.	.	.	.	.	.	.	.	.	.	.	16BJJ 16BB\	.	16g-/JJ	16e-\JJ	.	16ff#JJ 16b\	.	16bbJJ 16dd#\	.	.	.	.
4r	.	4ryy	.	4r	.	.	4r	.	.	4r	.	.	4r	.	.	.	4r	.	4r	.	4r	.	8r	.	.	8BL 8BB\	.	8g-/L	8e-\L	.	8ff#L 8b\	.	8bbL 8dd#\	.	.	4r	.
.	.	.	.	.	.	.	.	.	.	.	.	.	.	.	.	.	.	.	.	.	.	.	8r	.	.	8B 8BB\	.	8g-/	8e-\	.	8ff# 8b\	.	8bb 8dd#\	.	.	.	.
8BB/	.	8BByy/	.	8BB/	.	.	8B\	.	.	8f#\	.	.	8dd#\	e-	.	.	8B/	.	8f# 8B/	.	8dd#\	.	8d# 8B 8F# 8BB\	.	.	8BJ 8BB\	.	8g-/J	8e-\J	.	8ff#J 8b\	.	8bbJ 8dd#\	.	.	8ddd#\	.
=46	=46	=46	=46	=46	=46	=46	=46	=46	=46	=46	=46	=46	=46	=46	=46	=46	=46	=46	=46	=46	=46	=46	=46	=46	=46	=46	=46	=46	=46	=46	=46	=46	=46	=46	=46	=46	=46
*	*	*	*	*	*	*	*	*	*	*	*	*	*	*	*	*	*	*	*2\right	*	*2\right	*	*	*	*	*	*	*	*	*	*	*	*	*	*	*	*
*	*	*	*	*	*	*	*	*	*	*	*	*	*	*	*	*	*	*	*tremolo	*	*tremolo	*	*2\right	*	*	*	*	*	*	*	*	*	*	*	*	*	*
!	!	!	!	!	!	!	!	!	!	!	!	!	!	!	!	!	!	!	!	!	!	!	!	!	!	!	!	!	!	!	!	!	!	!	!	!	!LO:HP:b
!	!	!	!	!	!	!	!	!	!	!	!	!	!	!	!	!	!	!	!	!	!	!	!	!	!	!	!	!	!	!	!	!	!LO:S:s=2:note:problem:note-level slur	!	!	!	!
4E\	.	4Eyy\	.	2.E\	.	.	2.B\	.	.	2.gn\	.	.	2.ee\	-lei-	.	2.ryy	4E/	.	16gnLL 16B/	.	16ee\LL	.	2.e 2.B 2.Gn 2.E\	.	2.ryy	4E 4EE/	.	(>2.gn/	2.eX\	.	(>2.gg 2.bnX\	.	[>2.bb (>2.ee\	.	2.ryy	(>2.eee\	>
.	.	.	.	.	.	.	.	.	.	.	.	.	.	.	.	.	.	.	16g 16B/	.	16ee\	.	.	.	.	.	.	.	.	.	.	.	.	.	.	.	.
.	.	.	.	.	.	.	.	.	.	.	.	.	.	.	.	.	.	.	16g 16B/	.	16ee\	.	.	.	.	.	.	.	.	.	.	.	.	.	.	.	.
.	.	.	.	.	.	.	.	.	.	.	.	.	.	.	.	.	.	.	16g 16B/	.	16ee\	.	.	.	.	.	.	.	.	.	.	.	.	.	.	.	.
8Gn\	.	8Gnyy\	.	.	.	.	.	.	.	.	.	.	.	.	.	.	8Gn/	.	16g 16B/	.	16ee\	.	.	.	.	8Gn\ 8GGn\	.	.	.	.	.	.	.	.	.	.	.
.	.	.	.	.	.	.	.	.	.	.	.	.	.	.	.	.	.	.	16g 16B/	.	16ee\	.	.	.	.	.	.	.	.	.	.	.	.	.	.	.	.
4B\	.	4Byy\	.	.	.	.	.	.	.	.	.	.	.	.	.	.	4B/	.	16g 16B/	.	16ee\	.	.	.	.	4B 4BB\	.	.	.	.	.	.	.	.	.	.	.
.	.	.	.	.	.	.	.	.	.	.	.	.	.	.	.	.	.	.	16g 16B/	.	16ee\	.	.	.	.	.	.	.	.	.	.	.	.	.	.	.	.
.	.	.	.	.	.	.	.	.	.	.	.	.	.	.	.	.	.	.	16g 16B/	.	16ee\	.	.	.	.	.	.	.	.	.	.	.	.	.	.	.	.
.	.	.	.	.	.	.	.	.	.	.	.	.	.	.	.	.	.	.	16g 16B/	.	16ee\	.	.	.	.	.	.	.	.	.	.	.	.	.	.	.	.
8e\	.	8eyy\	.	.	.	.	.	.	.	.	.	.	.	.	.	.	8e\	.	16g 16B/	.	16ee\	.	.	.	.	8e 8E\	.	.	.	.	.	.	.	.	.	.	.
.	.	.	.	.	.	.	.	.	.	.	.	.	.	.	.	.	.	.	16gJJ 16B/	.	16ee\JJ	.	.	.	.	.	.	.	.	.	.	.	.	.	.	.	]
=47	=47	=47	=47	=47	=47	=47	=47	=47	=47	=47	=47	=47	=47	=47	=47	=47	=47	=47	=47	=47	=47	=47	=47	=47	=47	=47	=47	=47	=47	=47	=47	=47	=47	=47	=47	=47	=47
!	!	!	!	!	!	!	!	!	!	!	!	!	!	!	!	!	!	!	!	!	!	!	!	!	!	!	!	!	!	!	!	!	!LO:S:s=2:note:problem:note-level slur	!	!	!	!
4B\	.	4Byy\	.	4BB/	.	.	4B\	.	.	4f#\	.	.	4dd#\	-son	.	2.ryy	4B/	.	4f# 4B/	.	4dd#\	.	4d# 4B 4F# 4BB\	.	2.ryy	4B 4BB\	.	4g-X/)	4e-X\	.	4ff#X 4bnX\)	.	4bb] 4dd#\)	.	2.ryy	4ddd#\)	.
8r	.	8ryy	.	8r	.	.	8r	.	.	8r	.	.	8r	.	.	.	8r	.	8r	.	8r	.	8r	.	.	16BLL 16BB\	.	16g-/LL	16e-\LL	.	16ff#LL 16b\	.	16bbLL 16dd#\	.	.	8r	.
.	.	.	.	.	.	.	.	.	.	.	.	.	.	.	.	.	.	.	.	.	.	.	.	.	.	16BJJ 16BB\	.	16g-/JJ	16e-\JJ	.	16ff#JJ 16b\	.	16bbJJ 16dd#\	.	.	.	.
4r	.	4ryy	.	4r	.	.	4r	.	.	4r	.	.	4r	.	.	.	4r	.	4r	.	4r	.	8r	.	.	8BL 8BB\	.	8g-/L	8e-\L	.	8ff#L 8b\	.	8bbL 8dd#\	.	.	4r	.
.	.	.	.	.	.	.	.	.	.	.	.	.	.	.	.	.	.	.	.	.	.	.	8r	.	.	8B 8BB\	.	8g-/	8e-\	.	8ff# 8b\	.	8bb 8dd#\	.	.	.	.
8BB/	.	8BByy/	.	8BB/	.	.	8B\	.	.	8f#\	.	.	8dd#\	e-	.	.	8B/	.	8f# 8B/	.	8dd#\	.	8d# 8B 8F# 8BB\	.	.	8BJ 8BB\	.	8g-/J	8e-\J	.	8ff#J 8b\	.	8bbJ 8dd#\	.	.	8ddd#\	.
=48	=48	=48	=48	=48	=48	=48	=48	=48	=48	=48	=48	=48	=48	=48	=48	=48	=48	=48	=48	=48	=48	=48	=48	=48	=48	=48	=48	=48	=48	=48	=48	=48	=48	=48	=48	=48	=48
!	!	!	!	!	!	!	!	!	!	!	!	!	!	!	!	!	!	!	!	!	!	!	!	!	!	!	!	!	!	!	!	!	!	!	!	!	!LO:HP:b
4E\	.	4Eyy\	.	2.E\	.	.	2.B\	.	.	2.gn\	.	.	2.ee\	-lei-	.	2.ryy	4E/	.	16gnLL 16B/	.	16ee\LL	.	2.e 2.B 2.Gn 2.E\	.	2.ryy	4E 4EE/	.	(>2.gn/	2.eX\	.	(>2.gg 2.bnX\	.	[>2.bb 2.ee\	.	2.ryy	(>2.eee\	>
.	.	.	.	.	.	.	.	.	.	.	.	.	.	.	.	.	.	.	16g 16B/	.	16ee\	.	.	.	.	.	.	.	.	.	.	.	.	.	.	.	.
.	.	.	.	.	.	.	.	.	.	.	.	.	.	.	.	.	.	.	16g 16B/	.	16ee\	.	.	.	.	.	.	.	.	.	.	.	.	.	.	.	.
.	.	.	.	.	.	.	.	.	.	.	.	.	.	.	.	.	.	.	16g 16B/	.	16ee\	.	.	.	.	.	.	.	.	.	.	.	.	.	.	.	.
8Gn\	.	8Gnyy\	.	.	.	.	.	.	.	.	.	.	.	.	.	.	8Gn/	.	16g 16B/	.	16ee\	.	.	.	.	8Gn 8GGn/	.	.	.	.	.	.	.	.	.	.	.
.	.	.	.	.	.	.	.	.	.	.	.	.	.	.	.	.	.	.	16g 16B/	.	16ee\	.	.	.	.	.	.	.	.	.	.	.	.	.	.	.	.
4B\	.	4Byy\	.	.	.	.	.	.	.	.	.	.	.	.	.	.	4B/	.	16g 16B/	.	16ee\	.	.	.	.	4B 4BB\	.	.	.	.	.	.	.	.	.	.	.
.	.	.	.	.	.	.	.	.	.	.	.	.	.	.	.	.	.	.	16g 16B/	.	16ee\	.	.	.	.	.	.	.	.	.	.	.	.	.	.	.	.
.	.	.	.	.	.	.	.	.	.	.	.	.	.	.	.	.	.	.	16g 16B/	.	16ee\	.	.	.	.	.	.	.	.	.	.	.	.	.	.	.	.
.	.	.	.	.	.	.	.	.	.	.	.	.	.	.	.	.	.	.	16g 16B/	.	16ee\	.	.	.	.	.	.	.	.	.	.	.	.	.	.	.	.
8e\	.	8eyy\	.	.	.	.	.	.	.	.	.	.	.	.	.	.	8e\	.	16g 16B/	.	16ee\	.	.	.	.	8e 8E\	.	.	.	.	.	.	.	.	.	.	.
.	.	.	.	.	.	.	.	.	.	.	.	.	.	.	.	.	.	.	16gJJ 16B/	.	16ee\JJ	.	.	.	.	.	.	.	.	.	.	.	.	.	.	.	]
=49	=49	=49	=49	=49	=49	=49	=49	=49	=49	=49	=49	=49	=49	=49	=49	=49	=49	=49	=49	=49	=49	=49	=49	=49	=49	=49	=49	=49	=49	=49	=49	=49	=49	=49	=49	=49	=49
*	*	*	*	*	*	*	*	*	*	*	*	*	*	*	*	*	*	*	*	*	*	*	*^	*	*	*	*	*	*	*	*	*	*^	*	*	*	*
8B\L	.	8Byy\L	.	4.BB/	.	.	4.B\	.	.	4.f#\	.	.	[>4.dd#\	-son	.	2.ryy	8B/L	.	8f#L 8B/	.	8dd#\L	.	[>4.d# [>4.B/	8BB\L	.	2.ryy	8BL 8BB\	.	8g-X/L)	8e-X\L	.	8ff#XL 8bnX\)	.	8bb]L 8dd#\	4.rAyy	.	2.ryy	8ddd#'>\L)	.
8F#\	.	8F#yy\	.	.	.	.	.	.	.	.	.	.	.	.	.	.	8F#/	.	(<16a#X/L	.	(>16a#X\L	.	.	8F#\	.	.	8F#\	.	8g-/	8e-\	.	8ff# 8b\	.	8bb 8dd#\	.	.	.	(>16aa#X\L	.
.	.	.	.	.	.	.	.	.	.	.	.	.	.	.	.	.	.	.	16b/	.	16b\	.	.	.	.	.	.	.	.	.	.	.	.	.	.	.	.	16bb\	.
8D#\J	.	8D#yy\J	.	.	.	.	.	.	.	.	.	.	.	.	.	.	8d#/J	.	16dd#/	.	16dd#\	.	.	8D#\J	.	.	8D#\J	.	8g-/J	8e-\J	.	8ff#J 8b\	.	8bbJ 8dd#\	.	.	.	16ddd#\	.
.	.	.	.	.	.	.	.	.	.	.	.	.	.	.	.	.	.	.	16ff#/JJ	.	16ff#\JJ)	.	.	.	.	.	.	.	.	.	.	.	.	.	.	.	.	16fff#\JJ)	.
8BB/	.	8BByy/	.	8BB/	.	.	8B\	.	.	8f#\	.	.	8dd#\]	.	.	.	8B/	.	8dd#\)	.	8bb\	.	8d#] 8B/]	8BB\	.	.	8BB/	.	8g-/	8e-\	.	8ff# 8b\	.	8bb 8dd#\	4rAyy	.	.	8bb\L	.
8r	.	8ryy	.	8r	.	.	8r	.	.	8r	.	.	8r	.	.	.	8r	.	8r	.	8r	.	8rB	8rBB	.	.	8r	.	8r	8rCyy	.	8r	.	8r	.	.	.	8r	.
!	!	!	!	!	!	!	!LO:TX:a:t=P:problem:brak zakończenia łuku	!	!	!LO:TX:a:t=P:problem:brak zakończenia łuku	!	!	!	!	!	!	!	!	!	!	!	!	!	!	!	!	!	!LO:DY:b:rj	!	!	!	!	!	!	!	!LO:DY:b:rj	!	!	!
8r	.	8ryy	.	8BB/	.	.	(>8B\	.	.	(>8f#\	.	.	(>8dd#\	Chri-	.	.	8r	.	8r	.	8dd#^<\	.	8rB	8rBB	.	.	8d# 8BB\	p	8r	8rCyy	.	8r	.	8b/	8f#\	p	.	8ddd#`>\J	.
*	*	*	*	*	*	*	*	*	*	*	*	*	*	*	*	*	*	*	*	*	*	*	*v	*v	*	*	*	*	*v	*v	*	*	*	*	*	*	*	*	*
!!LO:PB:g=original
=50	=50	=50	=50	=50	=50	=50	=50	=50	=50	=50	=50	=50	=50	=50	=50	=50	=50	=50	=50	=50	=50	=50	=50	=50	=50	=50	=50	=50	=50	=50	=50	=50	=50	=50	=50	=50	=50
*	*	*	*	*	*	*	*	*	*	*	*	*	*	*	*	*	*	*	*Xtremolo	*	*	*	*	*	*	*	*	*	*	*	*	*	*	*	*	*	*
!	!	!	!	!	!	!	!	!	!	!	!	!	!	!	!	!	!	!	!	!LO:DY:b	!	!LO:DY:b:rj	!	!	!	!	!	!	!	!	!	!	!	!	!	!	!
8EE/	.	8EEyy/	.	4.F#\	.	.	4.A#X\)	.	.	4.e\)	.	.	4cc#\	.	.	2.ryy	8r	.	8r	p	(>4cc#\	p	2.ryy	.	2.ryy	(>2.c# [>2.F#\	.	8r	.	2.r	.	(>2.a#X/	(<2.e\	.	2.ryy	(>4ccc#\	.
!	!	!	!	!	!	!	!	!	!	!	!	!	!	!	!	!	!	!	!	!	!	!	!	!	!	!	!	!	!LO:DY:b:rj	!	!	!	!	!	!	!	!
8r	.	8ryy	.	.	.	.	.	.	.	.	.	.	.	.	.	.	8A#XL 8F#/	.	8e/L	.	.	.	.	.	.	.	.	8g-XL 8G-X/	p	.	.	.	.	.	.	.	.
8r	.	8ryy	.	.	.	.	.	.	.	.	.	.	8b#X\)	.	.	.	8A#J 8F#/	.	8e/J	.	8b#X\)	.	.	.	.	.	.	8g-J 8G-/	.	.	.	.	.	.	.	8bb#X\)	.
8F#\	.	8F#yy\	.	4F#\	.	.	4A#\	.	.	4e\	.	.	4cc#\	-ste	.	.	8r	.	8r	.	(>4cc#\	.	.	.	.	.	.	4.g- 4.G-/	.	.	.	.	.	.	.	(>4ccc#\	.
8r	.	8ryy	.	.	.	.	.	.	.	.	.	.	.	.	.	.	8A#L 8F#/	.	8e/L	.	.	.	.	.	.	.	.	.	.	.	.	.	.	.	.	.	.
8r	.	8ryy	.	8F#\	.	.	8A#\	.	.	8e\	.	.	8dd#\	e-	.	.	8A#J 8F#/	.	8e/J	.	8dd#\)	.	.	.	.	.	.	.	.	.	.	.	.	.	.	8ddd#\)	.
*	*	*	*	*	*	*	*	*	*	*	*	*	*	*	*	*	*	*	*	*	*	*	*	*	*	*	*	*	*	*	*	*v	*v	*	*	*	*
=51	=51	=51	=51	=51	=51	=51	=51	=51	=51	=51	=51	=51	=51	=51	=51	=51	=51	=51	=51	=51	=51	=51	=51	=51	=51	=51	=51	=51	=51	=51	=51	=51	=51	=51	=51	=51
8FF#/	.	8FF#yy/	.	4.F#\	.	.	4.B\	.	.	4.d#\	.	.	(>4cc#\	-lei-	.	2.ryy	8r	.	8r	.	(>4b\	.	2.ryy	.	2.ryy	2.B 2.F#\])	.	8r	.	2.r	.	2.b 2.d#/))	.	2.ryy	(>4bb\	.
8r	.	8ryy	.	.	.	.	.	.	.	.	.	.	.	.	.	.	8BL 8F#/	.	8d#/L	.	.	.	.	.	.	.	.	8g-XL 8G-X/	.	.	.	.	.	.	.	.
8r	.	8ryy	.	.	.	.	.	.	.	.	.	.	8ee\)	.	.	.	8BJ 8F#/	.	8d#/J	.	8dd#\)	.	.	.	.	.	.	8g-J 8G-/	.	.	.	.	.	.	8ddd#\)	.
8F#\	.	8F#yy\	.	4.F#\	.	.	4.B\	.	.	4.d#\	.	.	(>4gg#\	-son	.	.	8r	.	8r	.	(>4gg#\	.	.	.	.	.	.	4.g- 4.G-/	.	.	.	.	.	.	(>4ggg#\	.
8r	.	8ryy	.	.	.	.	.	.	.	.	.	.	.	.	.	.	8BL 8F#/	.	8d#/L	.	.	.	.	.	.	.	.	.	.	.	.	.	.	.	.	.
8r	.	8ryy	.	.	.	.	.	.	.	.	.	.	8ff#\)	.	.	.	8BJ 8F#/	.	8d#/J	.	8ff#\)	.	.	.	.	.	.	.	.	.	.	.	.	.	8fff#\)	.
=52	=52	=52	=52	=52	=52	=52	=52	=52	=52	=52	=52	=52	=52	=52	=52	=52	=52	=52	=52	=52	=52	=52	=52	=52	=52	=52	=52	=52	=52	=52	=52	=52	=52	=52	=52	=52
*	*	*	*	*	*	*	*	*	*	*	*	*	*	*	*	*	*	*	*	*	*	*	*	*	*	*	*	*	*	*	*	*^	*	*	*	*
!	!	!	!	!	!	!	!	!	!	!	!	!	!	!	!	!	!	!	!	!	!	!	!	!	!	!	!	!	!	!	!	!LO:TX:a:t=P:problem:brak zakończenia łuku	!LO:TX:b:t=P:problem:brak zakończenia łuku	!	!	!	!
!	!	!	!	!	!	!	!	!	!	!	!	!	!	!	!	!	!	!	!	!	!	!	!	!	!	!LO:S:s=1:note:problem:note-level slur	!	!	!	!	!	!	!	!	!	!	!
!	!	!	!	!	!	!	!	!	!	!	!	!	!	!	!	!	!	!	!	!	!	!	!	!	!	!LO:S:s=2:note:problem:note-level slur	!	!	!	!	!	!	!	!	!	!	!
8FF#/	.	8FF#yy/	.	8F#\	.	.	8A#X\	.	.	8e\	.	.	8ff#\	Chri-	.	2.ryy	8r	.	8r	.	8ff#`>\	.	2.ryy	.	2.ryy	(>2.c# (>2.F#\	.	8r	.	2.r	.	(>2.a#X/	(<2.e\	.	2.ryy	8fff#'>\	.
8r	.	8ryy	.	4F#\	.	.	4A#\	.	.	4e\	.	.	4cc#\	-ste	.	.	8A#XL 8F#/	.	8e/L	.	4cc#`>\	.	.	.	.	.	.	8g-XL 8G-X/	.	.	.	.	.	.	.	[>4ccc#'>\	.
8r	.	8ryy	.	.	.	.	.	.	.	.	.	.	.	.	.	.	8A#J 8F#/	.	8e/J	.	.	.	.	.	.	.	.	8g-J 8G-/	.	.	.	.	.	.	.	.	.
4.F#\	.	4.F#yy\	.	8F#\	.	.	8A#\	.	.	8e\	.	.	(>8cc#`>\L	e-	.	.	8r	.	8r	.	8cc#`>\L	.	.	.	.	.	.	4.g- 4.G-/	.	.	.	.	.	.	.	8ccc#\L]	.
.	.	.	.	4F#\	.	.	4A#\	.	.	4e\	.	.	8ee\	-lei-	.	.	8A#L 8F#/	.	8e/L	.	(>8ee\	.	.	.	.	.	.	.	.	.	.	.	.	.	.	(>8eee\	.
!	!	!	!	!	!	!	!	!	!	!	!	!	!	!	!	!	!	!	!	!	!	!	!	!	!	!	!	!	!	!	!	!	!	!	!	!LO:TX:t=P:problem:po tym takcie wykreślone zostały dwa takty w całej partyturze	!
.	.	.	.	.	.	.	.	.	.	.	.	.	8dd#\J)	.	.	.	8A#J 8F#/	.	8e/J	.	8dd#\J)	.	.	.	.	.	.	.	.	.	.	.	.	.	.	8ddd#\J)	.
*	*	*	*	*	*	*	*	*	*	*	*	*	*	*	*	*	*	*	*	*	*	*	*	*	*	*	*	*	*	*	*	*v	*v	*	*	*	*
!!LO:PB:g=original
=53	=53	=53	=53	=53	=53	=53	=53	=53	=53	=53	=53	=53	=53	=53	=53	=53	=53	=53	=53	=53	=53	=53	=53	=53	=53	=53	=53	=53	=53	=53	=53	=53	=53	=53	=53	=53
!	!	!	!	!	!	!	!	!	!	!	!	!	!	!	!	!	!	!	!	!	!	!	!	!	!	!LO:S:s=1:note:problem:note-level slur	!	!	!	!	!	!	!	!	!	!
!	!	!	!	!	!	!	!	!	!	!	!	!	!	!	!	!	!	!	!	!	!	!	!	!	!	!LO:S:s=2:note:problem:note-level slur	!	!	!	!	!	!	!	!	!	!
4BB/	.	4BByy/	.	4BB/	.	.	4B\	.	.	4d#\	.	.	4b\	son	.	2.ryy	4B 4F#/	.	4d#/	.	4b\	.	2.r	.	2.r	4B) 4BB\)	.	4g-X 4G-X/	.	2.r	.	4b 4d#/))	.	2.ryy	4bb\	.
8A\	.	8Ayy\	.	8A\	.	.	8f#\	.	.	8b\	.	.	8dd#\	e-	.	.	8f#\	.	8b/	.	8dd#\	.	.	.	.	8r	.	8r	.	.	.	8r	.	.	8r	.
4G#\	.	4G#yy\	.	4G#\	.	.	4e\	.	.	4b\	.	.	4ee\	-le-	.	.	4e\	.	4b/	.	4ee\	.	.	.	.	4r	.	4r	.	.	.	4r	.	.	4r	.
8A\	.	8Ayy\	.	8A\	.	.	8f#\	.	.	8b\	.	.	8dd#\	-i-	.	.	8f#\	.	8b/	.	8dd#\	.	.	.	.	8r	.	8r	.	.	.	8r	.	.	8r	.
=54	=54	=54	=54	=54	=54	=54	=54	=54	=54	=54	=54	=54	=54	=54	=54	=54	=54	=54	=54	=54	=54	=54	=54	=54	=54	=54	=54	=54	=54	=54	=54	=54	=54	=54	=54	=54
4G#\	.	4G#yy\	.	4G#\	.	.	4e\	.	.	4b\	.	.	4ee\	-son	.	2.ryy	4e\	.	4b/	.	4ee\	.	2.r	.	2.ryy	2.r	.	2.r	.	2.r	.	2.r	.	2.ryy	2.r	.
8Gn\	.	8Gnyy\	.	8Gn\	.	.	8e\	.	.	8a\	.	.	8cc#\	e-	.	.	8e\	.	8a/	.	8cc#\	.	.	.	.	.	.	.	.	.	.	.	.	.	.	.
4F#\	.	4F#yy\	.	4F#\	.	.	4dn\	.	.	4a\	.	.	4ddn\	-le-	.	.	4dn\	.	4a/	.	4ddn\	.	.	.	.	.	.	.	.	.	.	.	.	.	.	.
8G\	.	8Gyy\	.	8G\	.	.	8e\	.	.	8a\	.	.	8cc#\	-i-	.	.	8e\	.	8a/	.	8cc#\	.	.	.	.	.	.	.	.	.	.	.	.	.	.	.
=55	=55	=55	=55	=55	=55	=55	=55	=55	=55	=55	=55	=55	=55	=55	=55	=55	=55	=55	=55	=55	=55	=55	=55	=55	=55	=55	=55	=55	=55	=55	=55	=55	=55	=55	=55	=55
4F#\	.	4F#yy\	.	4F#\	.	.	4dn\	.	.	4a\	.	.	4ddn\	-son	.	2.ryy	4dn\	.	4a/	.	4ddn\	.	2.r	.	2.ryy	2.r	.	2.r	.	2.r	.	2.r	.	2.ryy	2.r	.
8Fn\	.	8Fnyy\	.	8Fn\	.	.	8d\	.	.	8gn\	.	.	8b\	e-	.	.	8cn\	.	8gn/	.	8b\	.	.	.	.	.	.	.	.	.	.	.	.	.	.	.
4E\	.	4Eyy\	.	4E\	.	.	4cn\	.	.	4g\	.	.	4ccn\	-le-	.	.	4c\	.	4g/	.	4ccn\	.	.	.	.	.	.	.	.	.	.	.	.	.	.	.
8F\	.	8Fyy\	.	8F\	.	.	8d\	.	.	8g\	.	.	8b\	-i-	.	.	8d\	.	8g/	.	8b\	.	.	.	.	.	.	.	.	.	.	.	.	.	.	.
=56||	=56||	=56||	=56||	=56||	=56||	=56||	=56||	=56||	=56||	=56||	=56||	=56||	=56||	=56||	=56||	=56||	=56||	=56||	=56||	=56||	=56||	=56||	=56||	=56||	=56||	=56||	=56||	=56||	=56||	=56||	=56||	=56||	=56||	=56||	=56||	=56||
*k[b-e-]	*	*k[b-e-]	*	*k[b-e-]	*	*	*k[b-e-]	*	*	*k[b-e-]	*	*	*k[b-e-]	*	*	*	*k[b-e-]	*	*k[b-e-]	*	*k[b-e-]	*	*k[b-e-]	*	*	*k[b-e-]	*	*	*	*	*	*k[b-e-]	*	*	*k[b-e-]	*
!	!	!	!	!	!	!	!	!	!	!	!	!	!LO:TX:t=P:problem:kolejność znaków fn ccn gn ddn b- ee-	!	!	!	!	!	!	!	!	!	!	!	!	!	!	!	!	!	!	!	!	!	!	!
4En\	.	4Enyy\	.	4En\	.	.	4c\	.	.	4g\	.	.	4cc\	-son	.	2.ryy	4c\	.	4g/	.	4cc\	.	2.r	.	2.ryy	2.r	.	2.r	.	2.r	.	2.r	.	2.ryy	2.r	.
8E\	.	8Eyy\	.	8E-X\	.	.	8c\	.	.	8f\	.	.	8a\	e-	.	.	8c\	.	8f/	.	8a/	.	.	.	.	.	.	.	.	.	.	.	.	.	.	.
4D\	.	4Dyy\	.	4D\	.	.	4B-\	.	.	4f\	.	.	4b-\	-le-	.	.	4B-/	.	4f/	.	4b-/	.	.	.	.	.	.	.	.	.	.	.	.	.	.	.
8E\	.	8Eyy\	.	8E-\	.	.	8c\	.	.	8f\	.	.	8a\	-i-	.	.	8c\	.	8f/	.	8a/	.	.	.	.	.	.	.	.	.	.	.	.	.	.	.
=57	=57	=57	=57	=57	=57	=57	=57	=57	=57	=57	=57	=57	=57	=57	=57	=57	=57	=57	=57	=57	=57	=57	=57	=57	=57	=57	=57	=57	=57	=57	=57	=57	=57	=57	=57	=57
*	*	*	*	*	*	*	*	*	*	*	*	*	*	*	*	*	*	*	*	*	*	*	*	*	*	*^	*	*	*	*^	*	*	*	*	*	*
4D\	.	4Dyy\	.	4D\	.	.	4B-\	.	.	4f\	.	.	4b-\	-son	.	2.ryy	4d\	.	4f/	.	4b-\	.	2.r	.	2.ryy	4r	4rCCyy	.	2.r	.	4r	4rGyy	.	2.r	.	2.ryy	4r	.
8E-\	.	8E-yy\	.	8E-\	.	.	8B-\	.	.	8g\	.	.	8cc\	e-	.	.	8e-\	.	8g/	.	8cc\	.	.	.	.	8r	8rCCyy	.	.	.	8r	8rGyy	.	.	.	.	8r	.
4F\	.	4Fyy\	.	4F\	.	.	4B-\	.	.	4f\	.	.	4dd\	-le-	.	.	4f\	.	4b-/	.	4dd\	.	.	.	.	4r	4rCCyy	.	.	.	4r	4rGyy	.	.	.	.	4r	.
8E-\	.	8E-yy\	.	8E-\	.	.	8A\	.	.	8f\	.	.	8cc\	-i-	.	.	8f\	.	8a/	.	8cc\	.	.	.	.	8F/	8E-\	.	.	.	8cc/	8any\	.	.	.	.	8ccc\	.
*	*	*	*	*	*	*	*	*	*	*	*	*	*	*	*	*	*	*	*	*	*	*	*	*	*	*v	*v	*	*	*	*	*	*	*	*	*	*	*
!!LO:PB:g=original
=58	=58	=58	=58	=58	=58	=58	=58	=58	=58	=58	=58	=58	=58	=58	=58	=58	=58	=58	=58	=58	=58	=58	=58	=58	=58	=58	=58	=58	=58	=58	=58	=58	=58	=58	=58	=58	=58
*	*	*	*	*	*	*	*	*	*	*	*	*	*	*	*	*	*	*	*	*	*	*	*	*	*	*	*	*^	*	*	*	*	*	*	*	*	*
!	!	!	!	!	!	!	!	!	!	!	!	!	!	!	!	!	!	!	!	!	!	!	!LO:TX:i:a:t=Tromboni	!	!	!	!	!	!	!	!	!	!	!	!	!	!	!
4D\	.	4Dyy\	.	4D\	.	.	4B-\	.	.	4f\	.	.	4ff\	-son	.	2.ryy	4f 4B-\	.	4b-/	.	4ff\	.	2.r	.	2.ryy	4B- 4D\	.	4r	4rGyy	.	4ff/	4b-\	.	2.ryy	.	2.ryy	4fff\	.
8D\	.	8Dyy\	.	8D\	.	.	8B-\	.	.	8f#X\	.	.	8ff#X\	e-	.	.	8f#X 8B-\	.	8b-/	.	8ff#X\	.	.	.	.	8B- 8D\	.	8r	8rGyy	.	8ff#X/	8b-\	.	.	.	.	8fff#X\	.
4E-\	.	4E-yy\	.	4E-\	.	.	4B-\	.	.	4g\	.	.	4gg\	-le-	.	.	4g 4B-\	.	4b-/	.	4gg\	.	.	.	.	4B- 4E-\	.	4r	4rGyy	.	4gg/	4b-\	.	.	.	.	4ggg\	.
8En\	.	8Enyy\	.	8En\	.	.	8B-\	.	.	8g\	.	.	8cc#X'>\	-i-	.	.	8g 8B-\	.	8b-/	.	8cc#X\	.	.	.	.	8B- 8En\	.	8g/	8eX\	.	8cc#X/	8b-\	.	.	.	.	8ccc#X\	.
=59	=59	=59	=59	=59	=59	=59	=59	=59	=59	=59	=59	=59	=59	=59	=59	=59	=59	=59	=59	=59	=59	=59	=59	=59	=59	=59	=59	=59	=59	=59	=59	=59	=59	=59	=59	=59	=59	=59
*	*	*	*	*	*	*	*	*	*	*	*	*	*	*	*	*	*	*	*	*	*	*	*	*	*	*^	*	*	*	*	*	*	*	*	*	*	*	*
4F\	.	4Fyy\	.	4F\	.	.	4B-\	.	.	4fn\	.	.	4dd\	-son	.	2.ryy	4fn 4B-\	.	4b-/	.	4dd\	.	2.r	.	2.ryy	4B-/	4F\	.	4f/	4f\	.	4dd/	4b-\	.	2.ryy	.	2.ryy	4ddd\	.
8F\	.	8Fyy\	.	8F\	.	.	8B-\	.	.	8f\	.	.	8dd\	e-	.	.	8f 8B-\	.	8b-/	.	8dd\	.	.	.	.	8B-/	8F\	.	8f/	8f\	.	8dd/	8b-\	.	.	.	.	8ddd\	.
4F\	.	4Fyy\	.	4F\	.	.	4B-\	.	.	4f\	.	.	4ccn\	-le-	.	.	4f 4c\	.	4b-/	.	4cc\	.	.	.	.	4c/	4F\	.	4f/	4f\	.	4cc/	4b-\	.	.	.	.	4cccn\	.
8E-X\	.	8E-Xyy\	.	8E-X\	.	.	8A\	.	.	8f\	.	.	8ff\	-i-	.	.	8f 8c\	.	8a/	.	8ff\	.	.	.	.	8c/	8E-X\	.	8f/	8f\	.	8ff/	8any\	.	.	.	.	8fff\	.
*	*	*	*	*	*	*	*	*	*	*	*	*	*	*	*	*	*	*	*	*	*	*	*	*	*	*v	*v	*	*	*	*	*	*	*	*	*	*	*	*
=60	=60	=60	=60	=60	=60	=60	=60	=60	=60	=60	=60	=60	=60	=60	=60	=60	=60	=60	=60	=60	=60	=60	=60	=60	=60	=60	=60	=60	=60	=60	=60	=60	=60	=60	=60	=60	=60	=60
!	!	!	!	!	!	!LO:HP:a	!	!	!	!	!	!	!	!	!	!	!	!	!	!	!	!LO:HP:b	!	!	!	!	!	!	!	!	!	!	!	!	!	!	!	!
4D\	.	4Dyy\	.	4D\	.	<	4B-\	.	.	4f\	.	.	4ff\	-son	.	2.ryy	4f 4B-\	.	4b-/	.	4ff\	<	4r	.	2.ryy	4B- 4D\	.	4f 4B-/	4ryy	.	4ff/	4b-\	.	4ryy	.	2.ryy	4fff\	.
!	!LO:HP:b	!	!LO:HP:b	!	!	!	!	!	!	!	!	!	!	!	!	!	!	!	!	!	!	!	!	!	!	!	!	!	!	!	!	!	!	!	!	!	!	!
8D\	<	8Dyy\	<	8D\	.	.	8B-\	.	.	8f#X\	.	.	8ff#X\	e-	.	.	8f#X 8B-\	.	8b-/	.	8ff#X\	.	8r	.	.	8B- 8D\	.	8r	8rGyy	.	8ff#X/	8b-\	.	8ryy	.	.	8fff#X\	.
4E-\	.	4E-yy\	.	4E-\	.	.	4B-\	.	.	4g\	.	.	4gg\	-le-	.	.	4g 4B-\	.	4b-/	.	4gg\	.	4r	.	.	4B- 4E-\	.	4r	4rGyy	.	4gg/	4b-\	.	4ryy	.	.	4ggg\	.
8En\	[	8Enyy\	[	8En\	.	[[	8B-\	.	.	8g\	.	.	8cc#X\	-i-	.	.	8g 8B-\	.	8b-/	.	8cc#X\	[	8c#X^< 8G 8En\	.	.	8B- 8En\	.	8g/	8eX\	.	8cc#X/	8b-\	.	8bb-^< 8gg\	.	.	8ccc#X\	.
=61	=61	=61	=61	=61	=61	=61	=61	=61	=61	=61	=61	=61	=61	=61	=61	=61	=61	=61	=61	=61	=61	=61	=61	=61	=61	=61	=61	=61	=61	=61	=61	=61	=61	=61	=61	=61	=61	=61
*	*	*	*	*	*	*	*	*	*	*	*	*	*	*	*	*	*	*	*	*	*	*	*	*	*	*^	*	*	*	*	*	*	*	*	*	*	*	*
*2\right	*	*2\right	*	*	*	*	*	*	*	*	*	*	*	*	*	*	*2\right	*	*	*	*	*	*	*	*	*	*	*	*	*	*	*	*	*	*	*	*	*	*
*tremolo	*	*tremolo	*	*	*	*	*	*	*	*	*	*	*	*	*	*	*tremolo	*	*tremolo	*	*	*	*	*	*	*	*	*	*	*	*	*	*	*	*	*	*	*	*
!	!LO:DY:b:rj	!	!LO:DY:b:rj	!	!	!LO:DY:a:rj	!	!	!LO:DY:a:rj	!	!	!LO:DY:a:rj	!	!	!	!	!	!LO:DY:b:rj	!	!LO:DY:b:rj	!	!LO:DY:b:rj	!	!LO:DY:b:rj	!	!	!	!	!	!	!	!	!	!	!	!LO:DY:b:rj	!	!	!LO:DY:b:rj
8F\L	f	8Fyy\L	f	4.F\	.	f	4.B-\	.	f	4.f\	.	f	4.dd\	-son	.	2.ryy	8fL 8B-\	f	8b-L 8f/	f	8dd\L	f	2.d 2.B- 2.F\	f	2.ryy	2.B-/	2.F\	.	2.f/	2.f\	.	2.dd/	(<2.b-\	.	[>2.bb- 2.ff\	f	2.ryy	2.ddd\	f
8F\	.	8Fyy\	.	.	.	.	.	.	.	.	.	.	.	.	.	.	8f 8B-\	.	8b- 8f/	.	8dd\	.	.	.	.	.	.	.	.	.	.	.	.	.	.	.	.	.	.
8F\	.	8Fyy\	.	.	.	.	.	.	.	.	.	.	.	.	.	.	8f 8B-\	.	8b- 8f/	.	8dd\	.	.	.	.	.	.	.	.	.	.	.	.	.	.	.	.	.	.
8F\	.	8Fyy\	.	4.F\	.	.	4.f\	.	.	4.b-\	.	.	4.dd\	e-	.	.	8f 8B-\	.	8b- 8f/	.	8dd\	.	.	.	.	.	.	.	.	.	.	.	.	.	.	.	.	.	.
8F\	.	8Fyy\	.	.	.	.	.	.	.	.	.	.	.	.	.	.	8f 8B-\	.	8b- 8f/	.	8dd\	.	.	.	.	.	.	.	.	.	.	.	.	.	.	.	.	.	.
8F\J	.	8Fyy\J	.	.	.	.	.	.	.	.	.	.	.	.	.	.	8fJ 8B-\	.	8b-J 8f/	.	8dd\J	.	.	.	.	.	.	.	.	.	.	.	.	.	.	.	.	.	.
=62	=62	=62	=62	=62	=62	=62	=62	=62	=62	=62	=62	=62	=62	=62	=62	=62	=62	=62	=62	=62	=62	=62	=62	=62	=62	=62	=62	=62	=62	=62	=62	=62	=62	=62	=62	=62	=62	=62	=62
*	*	*	*	*	*	*	*	*	*	*	*	*	*	*	*	*	*	*	*	*	*	*	*^	*	*	*	*	*	*	*	*	*	*	*	*^	*	*	*	*
!	!	!	!	!	!	!	!	!	!	!	!	!	!	!	!	!	!	!	!LO:TX:a:t=P:problem:w źródle ćwierćnuta bez kropki	!	!	!	!	!	!	!	!	!	!	!	!	!	!	!	!	!	!	!	!	!	!
!	!	!	!	!	!	!	!	!	!	!	!	!	!	!	!	!	!	!	!LO:N:vis=4	!	!	!	!	!	!	!	!	!	!	!	!	!	!	!	!	!	!	!	!	!	!
8F\L	.	8Fyy\L	.	2.F\	.	.	(>4.f\	.	.	(>4.b-\	.	.	(>4.cc\	-lej-	.	2.ryy	8fL 8c\	.	8b-L 8f/	.	8cc\L	.	4.c/	4.B- 4.F\	.	2.ryy	2.c/	4.F\	.	4.f/	4.f\	.	4.cc/	4.b-\)	.	4.bb-/]	4.ff\	.	2.ryy	4.cccn\	.
8F\	.	8Fyy\	.	.	.	.	.	.	.	.	.	.	.	.	.	.	8f 8c\	.	8b- 8f/	.	8cc\	.	.	.	.	.	.	.	.	.	.	.	.	.	.	.	.	.	.	.	.
8F\J	.	8Fyy\J	.	.	.	.	.	.	.	.	.	.	.	.	.	.	8f 8c\	.	8b-J 8f/	.	8cc\J	.	.	.	.	.	.	.	.	.	.	.	.	.	.	.	.	.	.	.	.
!	!	!	!	!	!	!	!	!	!	!	!	!	!	!	!	!	!	!	!	!	!	!	!	!	!	!	!	!	!	!	!	!	!	!	!	!	!	!	!	!LO:TX:a:t=P:problem:w źródle podwójna kreska taktowa obejmuje vl (1,2), vla, S, A, T, B, vlc i cb	!
8FF/L	.	8FFyy/L	.	.	.	.	4.c\)	.	.	4.a\)	.	.	4.ff\)	.	.	.	8f 8c\	.	8aL 8f/	.	8ff\L	.	4.c 4.A/	4.F 4.FF\	.	.	.	4.FF/	.	4.f/	4.f\	.	4.cc/	4.any\	.	4.aa/	4.ff\	.	.	4.fff\	.
8FF/	.	8FFyy/	.	.	.	.	.	.	.	.	.	.	.	.	.	.	8f 8c\	.	8a 8f/	.	8ff\	.	.	.	.	.	.	.	.	.	.	.	.	.	.	.	.	.	.	.	.
8FF/J	.	8FFyy/J	.	.	.	.	.	.	.	.	.	.	.	.	.	.	8fJ 8c\	.	8aJ 8f/	.	8ff\J	.	.	.	.	.	.	.	.	.	.	.	.	.	.	.	.	.	.	.	.
*	*	*	*	*	*	*	*	*	*	*	*	*	*	*	*	*	*Xtremolo	*	*	*	*	*	*	*	*	*	*	*	*	*	*	*	*	*	*	*	*	*	*	*	*
*	*	*	*	*	*	*	*	*	*	*	*	*	*	*	*	*	*	*	*	*	*	*	*	*	*	*	*v	*v	*	*	*	*	*	*	*	*	*	*	*	*	*
*	*	*	*	*	*	*	*	*	*	*	*	*	*	*	*	*	*	*	*	*	*	*	*v	*v	*	*	*	*	*v	*v	*	*	*	*	*	*	*	*	*	*
!!LO:PB:g=original
=63||	=63||	=63||	=63||	=63||	=63||	=63||	=63||	=63||	=63||	=63||	=63||	=63||	=63||	=63||	=63||	=63||	=63||	=63||	=63||	=63||	=63||	=63||	=63||	=63||	=63||	=63||	=63||	=63||	=63||	=63||	=63||	=63||	=63||	=63||	=63||	=63||	=63||	=63||
4B-\	.	4BB-yy/	.	4B-\	.	.	4d\	.	.	4b-\	.	.	4b-\	-son	.	2.ryy	4f 4B-\	.	4b- 4f/	.	4b-\	.	4d 4B- 4F 4BB-\	.	2.ryy	4B- 4BB-\	.	4f 4B-/	.	4dd/	4b-\	.	4bb-/	4ff\	.	2.ryy	4bb-\	.
!	!	!	!	!	!	!	!	!	!	!	!	!	!	!	!	!	!	!	!	!LO:DY:b:rj	!	!LO:DY:b:rj	!	!	!	!	!	!	!	!	!	!	!	!	!LO:DY:b:rj	!	!	!LO:DY:b:rj
8r	.	8ryy	.	8r	.	.	8r	.	.	8a-X\	.	.	8cc\	Chri-	.	.	8r	.	8a-X/	p	8cc`>\	p	8r	.	.	8r	.	8r	.	8r	8rdyy	.	8aa-X`>/	8rg	p	.	(>8ccc`>\	p
4r	.	4ryy	.	4r	.	.	4r	.	.	4g\	.	.	(>4b-\	-ste	.	.	4r	.	(<4g/	.	(>4b-\	.	4r	.	.	4r	.	4r	.	4r	4rdyy	.	(>4gg/	4rg	.	.	(>4bb-\)	.
8r	.	8ryy	.	8r	.	.	8r	.	.	8en\	.	.	8g\)	e-	.	.	8r	.	8en/	.	8g/	.	8r	.	.	8r	.	8r	.	8r	8rdyy	.	8een/	8rg	.	.	8gg\	.
*	*	*	*	*	*	*	*	*	*	*	*	*	*	*	*	*	*	*	*	*	*	*	*	*	*	*	*	*	*	*v	*v	*	*	*	*	*	*	*
=64	=64	=64	=64	=64	=64	=64	=64	=64	=64	=64	=64	=64	=64	=64	=64	=64	=64	=64	=64	=64	=64	=64	=64	=64	=64	=64	=64	=64	=64	=64	=64	=64	=64	=64	=64	=64	=64
2.r	.	2.ryy	.	2.r	.	.	2.r	.	.	(>4f\	.	.	(>4a-X\	-lei-	.	2.ryy	2.r	.	4f/)	.	4a-X/)	.	2.r	.	2.ryy	2.r	.	2.r	.	2.r	.	4ff/)	2.rg	.	2.ryy	8aa-X\)	.
.	.	.	.	.	.	.	.	.	.	.	.	.	.	.	.	.	.	.	.	.	.	.	.	.	.	.	.	.	.	.	.	.	.	.	.	8r	.
.	.	.	.	.	.	.	.	.	.	8g\)	.	.	8b-\)	.	.	.	.	.	8g`</	.	8b-`</	.	.	.	.	.	.	.	.	.	.	8gg`>/	.	.	.	8bb-`>\	.
.	.	.	.	.	.	.	.	.	.	4f\	.	.	(>4a-\	-son	.	.	.	.	(<4f/	.	(<4a-/	.	.	.	.	.	.	.	.	.	.	(>4ff/	.	.	.	(>4aa-\	.
.	.	.	.	.	.	.	.	.	.	8d\	Chri-	.	8f/)	Chri-	.	.	.	.	8d/	.	8f/	.	.	.	.	.	.	.	.	.	.	8dd/	.	.	.	8ff\	.
=65	=65	=65	=65	=65	=65	=65	=65	=65	=65	=65	=65	=65	=65	=65	=65	=65	=65	=65	=65	=65	=65	=65	=65	=65	=65	=65	=65	=65	=65	=65	=65	=65	=65	=65	=65	=65	=65
2.r	.	2.ryy	.	2.r	.	.	8r	.	.	4e-\	-ste	.	4g/	-ste	.	2.ryy	8r	.	4e-/)	.	4g/)	.	2.r	.	2.ryy	2.r	.	2.r	.	4r	.	4ee-/)	2.rg	.	2.ryy	4gg\)	.
.	.	.	.	.	.	.	8r	.	.	.	.	.	.	.	.	.	8r	p	.	.	.	.	.	.	.	.	.	.	.	.	.	.	.	.	.	.	.
.	.	.	.	.	.	.	8c\	Chri-	.	8a-X\	Chri-	.	8r	.	.	.	8c`</	.	8a-X`</	.	8r	.	.	.	.	.	.	.	.	8cc`>/	.	8aa-X`>/	.	.	.	8r	.
.	.	.	.	.	.	.	4B-\	-ste	.	4g\	-ste	.	4r	.	.	.	(<4B-/	.	(<4g/	.	4r	.	.	.	.	.	.	.	.	(>4b-/	.	(>4gg/	.	.	.	4r	.
.	.	.	.	.	.	.	8G/	e-	.	8en\	e-	.	8r	.	.	.	8G/	.	8en/	.	8r	.	.	.	.	.	.	.	.	8g/	.	8een/	.	.	.	8r	.
=66	=66	=66	=66	=66	=66	=66	=66	=66	=66	=66	=66	=66	=66	=66	=66	=66	=66	=66	=66	=66	=66	=66	=66	=66	=66	=66	=66	=66	=66	=66	=66	=66	=66	=66	=66	=66	=66
4r	.	4ryy	.	4r	.	.	(>4A-X\	-lei-	.	(>4f\	-lei-	.	2.r	.	.	2.ryy	4A-X/)	.	4f/)	.	2.r	.	2.r	.	2.ryy	2.r	.	2.r	.	4a-X/)	.	4ff/)	2.rg	.	2.ryy	2.r	.
!LO:TX:i:a:t=Violoncelli	!	!	!	!	!	!	!	!	!	!	!	!	!	!	!	!	!	!	!	!	!	!	!	!	!	!	!	!	!	!	!	!	!	!	!	!	!
8r	.	8ryy	.	8r	.	.	8B-\)	.	.	8g\)	.	.	.	.	.	.	8B-/	.	8g`</	.	.	.	.	.	.	.	.	.	.	8b-/	.	8gg`>/	.	.	.	.	.
4r	.	4ryy	.	4r	.	.	(>4A-\	-son	.	(>4f\	-son	.	.	.	.	.	(<4A-/	.	(<4f/	.	.	.	.	.	.	.	.	.	.	4a-/	.	(>4ff/	.	.	.	.	.
!	!LO:DY:b:rj	!	!LO:DY:b:rj	!	!	!	!	!	!	!	!	!	!	!	!	!	!	!	!	!	!	!	!	!	!	!	!	!	!	!	!	!	!	!	!	!	!
8BB-/	p	8BB-yy/	p	(>8BB-/	Ky-	.	8F/)	.	.	8d\)	.	.	.	.	.	.	8F/	.	8d/)	.	.	.	.	.	.	.	.	.	.	8f/	.	8dd/	.	.	.	.	.
*	*	*	*	*	*	*	*	*	*	*	*	*	*	*	*	*	*	*	*	*	*	*	*	*	*	*	*	*	*	*	*	*v	*v	*	*	*	*
=67||	=67||	=67||	=67||	=67||	=67||	=67||	=67||	=67||	=67||	=67||	=67||	=67||	=67||	=67||	=67||	=67||	=67||	=67||	=67||	=67||	=67||	=67||	=67||	=67||	=67||	=67||	=67||	=67||	=67||	=67||	=67||	=67||	=67||	=67||	=67||	=67||
*k[b-e-a-]	*	*k[b-e-a-]	*	*k[b-e-a-]	*	*	*k[b-e-a-]	*	*	*k[b-e-a-]	*	*	*k[b-e-a-]	*	*	*	*k[b-e-a-]	*	*k[b-e-a-]	*	*k[b-e-a-]	*	*k[b-e-a-]	*	*	*k[b-e-a-]	*	*k[b-e-a-]	*	*k[b-e-a-]	*	*k[b-e-a-]	*	*	*k[b-e-a-]	*
*	*	*	*	*	*	*	*	*	*	*	*	*	*	*	*	*	*	*	*	*	*	*	*	*	*	*	*	*	*	*	*	*^	*	*	*	*
!	!	!	!	!	!	!	!	!	!	!	!	!	!LO:TX:t=P:problem:kolejność znaków b- ee- a-	!	!	!	!	!	!	!	!	!	!	!	!	!	!	!	!	!	!	!	!	!	!	!	!
4E-\	.	4E-yy\	.	4E-\)	.	.	4G/	Ky-	.	4e-\	Ky-	.	2.r	.	.	2.ryy	4G/)	.	4e-/	.	2.r	.	2.r	.	2.ryy	2.r	.	2.r	.	4g/	.	4ee-/)	2.r	.	2.ryy	2.r	.
8E-\	.	8E-yy\	.	8E-\	-ri-	.	8G/	-ri-	.	8B-/	-ri-	.	.	.	.	.	8G/	.	8B-/	.	.	.	.	.	.	.	.	.	.	8r	.	8rdd	.	.	.	.	.
4E-\	.	4E-yy\	.	4E-\	-e	.	4A-/	-e	.	4c/	-e	.	.	.	.	.	4A-/	.	4c/	.	.	.	.	.	.	.	.	.	.	4r	.	4rdd	.	.	.	.	.
8E-\	.	8E-yy\	.	8E-\	e-	.	8F/	e-	.	8d\	e-	.	.	.	.	.	8F/	.	8d/	.	.	.	.	.	.	.	.	.	.	8r	.	8rdd	.	.	.	.	.
=68	=68	=68	=68	=68	=68	=68	=68	=68	=68	=68	=68	=68	=68	=68	=68	=68	=68	=68	=68	=68	=68	=68	=68	=68	=68	=68	=68	=68	=68	=68	=68	=68	=68	=68	=68	=68	=68
4E-\	.	4E-yy\	.	(>4E-\	-lei-	.	(>4G/	-lei-	.	(>4e-\	-lei-	.	2.r	.	.	2.ryy	4G/	.	4e-/	.	2.r	.	2.r	.	2.ryy	2.r	.	2.r	.	2.r	.	2.rdd	2.rg	.	2.ryy	2.r	.
8D\	.	8Dyy\	.	8D\)	.	.	8B-\)	.	.	8f\)	.	.	.	.	.	.	8B-/	.	8f/	.	.	.	.	.	.	.	.	.	.	.	.	.	.	.	.	.	.
4E-\	.	4E-yy\	.	4E-\	-son	.	4B-\	-son	.	4g\	-son	.	.	.	.	.	4B-/	.	4g/	.	.	.	.	.	.	.	.	.	.	.	.	.	.	.	.	.	.
8c\	.	8cyy\	.	8c\	e-	.	8e-\	e	.	8a-\	e-	.	.	.	.	.	8e-\	.	8a-/	.	.	.	.	.	.	.	.	.	.	.	.	.	.	.	.	.	.
!!LO:PB:g=original
=69	=69	=69	=69	=69	=69	=69	=69	=69	=69	=69	=69	=69	=69	=69	=69	=69	=69	=69	=69	=69	=69	=69	=69	=69	=69	=69	=69	=69	=69	=69	=69	=69	=69	=69	=69	=69	=69
4r	.	4.B-\	.	4.B-\	-lei-	.	4.e-\	.	.	4.g\	-lei-	.	4r	.	.	2.ryy	4.e-\	.	4.g/	.	4r	.	2.r	.	2.r	2.r	.	2.r	.	2.r	.	4rdd	2.rg	.	2.ryy	4r	.
8r	.	.	.	.	.	.	.	.	.	.	.	.	8r	.	.	.	.	.	.	.	8r	.	.	.	.	.	.	.	.	.	.	8rdd	.	.	.	8r	.
4r	.	4B-\	.	(>4B-\	-son	.	4.d\	.	.	4.f\	-son	.	4r	.	.	.	4.d\	.	4.f/	.	4r	.	.	.	.	.	.	.	.	.	.	4rdd	.	.	.	4r	.
8A-\	.	8A-\	.	8A-\)	.	.	.	.	.	.	.	.	[>8b-\	Ky-	.	.	.	.	.	.	[>8b-\	.	.	.	.	.	.	.	.	.	.	8b-/	.	.	.	[>8bb-\	.
=70	=70	=70	=70	=70	=70	=70	=70	=70	=70	=70	=70	=70	=70	=70	=70	=70	=70	=70	=70	=70	=70	=70	=70	=70	=70	=70	=70	=70	=70	=70	=70	=70	=70	=70	=70	=70	=70
*	*	*	*	*	*	*	*	*	*	*	*	*	*	*	*	*	*	*	*	*	*	*	*	*	*	*	*	*	*	*^	*	*	*	*	*	*	*
!	!	!LO:TX:t=P:problem:dwie ukośne kreski - unisono z kontrabasem (t. 70-80)	!	!	!	!	!	!	!	!	!	!	!	!	!	!	!	!	!	!	!	!	!	!	!	!	!	!	!	!	!	!	!	!	!	!	!	!
4G\	.	4Gyy\	.	4G\	Ky-	.	4e-\	.	.	4b-\	Ky-	.	4b-\]	.	.	2.ryy	4e-\	.	4b-/	.	4b-\]	.	2.ryy	.	2.ryy	4G 4GG/	.	4r	.	4b-/	4e-\	.	4b-/	2.rg	.	2.ryy	4bb-\]	.
8G\	.	8Gyy\	.	8G\	-ri-	.	8B-\	.	.	8e-\	-ri-	.	8ee-\	-ri-	.	.	8B-/	.	8e-/	.	8ee-\	.	.	.	.	8G 8GG/	.	8r	.	8e-/	8B-\	.	8ee-/	.	.	.	8eee-\	.
4.A-\	.	4.A-yy\	.	4A-\	-e	.	4B-\	.	.	8.f\L	-e	.	4dd\	-e	.	.	4B-/	.	8.f/L	.	4dd\	.	.	.	.	4.A- 4.AA-/	.	4.f 4.B-/	.	8.f/L	4B-\	.	4dd/	.	.	.	4ddd\	.
.	.	.	.	.	.	.	.	.	.	16g\Jk	.	.	.	.	.	.	.	.	16g/K	.	.	.	.	.	.	.	.	.	.	16g/K	.	.	.	.	.	.	.	.
.	.	.	.	8A-\	e-	.	8d\	.	.	8a-\	e-	.	8b-\	e-	.	.	8d\	.	8a-/J	.	8b-\	.	.	.	.	.	.	.	.	8a-/J	8d\	.	8b-/	.	.	.	8bb-\	.
=71	=71	=71	=71	=71	=71	=71	=71	=71	=71	=71	=71	=71	=71	=71	=71	=71	=71	=71	=71	=71	=71	=71	=71	=71	=71	=71	=71	=71	=71	=71	=71	=71	=71	=71	=71	=71	=71	=71
*	*	*	*	*	*	*	*	*	*	*	*	*	*	*	*	*	*	*	*	*	*	*	*	*	*	*	*	*^	*	*	*	*	*	*	*	*	*	*
4.G\	.	4.Gyy\	.	4.G\	-lei-	.	4e-\	.	.	4b-\	-le-	.	4.ee-\	-lei-	.	2.ryy	4e-\	.	4b-/	.	4.ee-\	.	2.ryy	.	2.ryy	4.G 4.GG/	.	4g/	4e-\	.	4b-/	4e-\	.	4.ee-/	2.rg	.	2.ryy	4.eee-\	.
.	.	.	.	.	.	.	8B-\	.	.	8e-\	-i-	.	.	.	.	.	8B-/	.	8e-/	.	.	.	.	.	.	.	.	8r	8rGyy	.	8e-/	8B-\	.	.	.	.	.	.	.
8.A-\L	.	8.A-yy\L	.	8.A-\L	-son	.	4B-\	.	.	8.f\L	-son	.	4dd\	-son	.	.	4B-/	.	8.f/L	.	(>4dd\	.	.	.	.	8.A-L 8.AA-/	.	4.f 4.B-/	4rGyy	.	8.f/L	4B-\	.	4dd/	.	.	.	(>4ddd\	.
16G\Jk	.	16Gyy\Jk	.	16G\Jk	.	.	.	.	.	16g\Jk	.	.	.	.	.	.	.	.	16g/K	.	.	.	.	.	.	16GK 16GG/	.	.	.	.	16g/K	.	.	.	.	.	.	.	.
8F\	.	8Fyy\	.	8F\	e-	.	8d\	.	.	8a-\	e-	.	8b-\	e-	.	.	8d\	.	8a-/J	.	8b-\)	.	.	.	.	8FJ 8FF/	.	.	8rGyy	.	8a-/J	8d\	.	8b-/	.	.	.	8bb-\)	.
*	*	*	*	*	*	*	*	*	*	*	*	*	*	*	*	*	*	*	*	*	*	*	*	*	*	*	*	*v	*v	*	*	*	*	*	*	*	*	*	*
=72	=72	=72	=72	=72	=72	=72	=72	=72	=72	=72	=72	=72	=72	=72	=72	=72	=72	=72	=72	=72	=72	=72	=72	=72	=72	=72	=72	=72	=72	=72	=72	=72	=72	=72	=72	=72	=72	=72
4G\	.	4Gyy\	.	4G\	-le-	.	4e-\	.	.	8b-\L	-le-	.	4ee-\	-le-	.	2.ryy	4e-\	.	8b-/L	.	4ee-\	.	2.ryy	.	2.ryy	4G 4GG/	.	4e- 4G/	.	8b-'>/L	4e-\	.	4ee-/	2.rg	.	2.ryy	4eee-\	.
.	.	.	.	.	.	.	.	.	.	8g\J	.	.	.	.	.	.	.	.	(8g/	.	.	.	.	.	.	.	.	.	.	(>8g/	.	.	.	.	.	.	.	.
8GG^</	.	8GG^<yy/	.	8GG/	-i-	.	8d\	.	.	8f\	-i-	.	8bn\	-i-	.	.	8d\	.	8f/J)	.	(>8bn^<\	.	.	.	.	8G 8GG/	.	8r	.	8f/J	8d\	.	8bn^>/	.	.	.	8bbn^<\	.
4AA-/	.	4AA-yy/	.	4AA-/	-son	.	4c\	.	.	4e-\	-son	.	4cc\	-son	.	.	4c\	.	4e-/	.	4cc\)	.	.	.	.	4A-/ 4AA-/	.	4r	.	4e-/)	4c\	.	[>4.cc/	.	.	.	[>4.ccc\	.
8AA-/	.	8AA-yy/	.	8AA-/	e-	.	8c\	.	.	8en\	e	.	8cc\	e-	.	.	8c\	.	(<8en^</	.	8cc\	.	.	.	.	8A-/ 8AA-/	.	8r	.	8eX/	8c\	.	.	.	.	.	.	.
=73	=73	=73	=73	=73	=73	=73	=73	=73	=73	=73	=73	=73	=73	=73	=73	=73	=73	=73	=73	=73	=73	=73	=73	=73	=73	=73	=73	=73	=73	=73	=73	=73	=73	=73	=73	=73	=73	=73
4.AAn/	.	4.AAnyy/	.	4.AAn/	-lei-	.	4c\	.	.	4f\	.	.	4cc\	-le-	.	2.ryy	4c\	.	4f/)	.	4cc\	.	2.ryy	.	2.ryy	4.An 4.AAn/	.	2.r	.	4f/	4c\	.	4cc/]	2.rg	.	2.ryy	4ccc\]	.
!	!	!	!	!	!	!	!	!	!	!	!	!	!	!	!	!	!	!	!	!	!	!LO:HP:a:t=cresc&colon;	!	!	!	!	!LO:HP:a:t=cresc&colon;	!	!	!	!	!	!	!	!	!	!	!
.	.	.	.	.	.	.	8c#X\	.	.	8f\	.	.	8cc#X\	-i-	.	.	8c#X\	.	8f/	.	(>8cc#X^<\	<	.	.	.	.	<	.	.	8f/	8c#X\	.	8cc#X^>/	.	.	.	8ccc#X^<\	.
4BB-/	.	4BB-yy/	.	4BB-/	-son	.	4d\	.	.	4f\	.	.	4dd\	-son	.	.	4d\	.	4f/	.	4dd\)	.	.	.	.	4B- 4BB-\	.	.	.	4f/	4.d\	.	[>4.dd/	.	.	.	[>4.ddd\	.
8BB-/	.	8BB-yy/	.	8BB-/	e-	.	8d\	.	.	8f#X\	.	.	8dd\	e-	.	.	8d\	.	(<8f#X^</	.	8dd\	.	.	.	.	8B- 8BB-\	.	.	.	8f#X/	.	.	.	.	.	.	.	.
=74	=74	=74	=74	=74	=74	=74	=74	=74	=74	=74	=74	=74	=74	=74	=74	=74	=74	=74	=74	=74	=74	=74	=74	=74	=74	=74	=74	=74	=74	=74	=74	=74	=74	=74	=74	=74	=74	=74
4BB-/	.	4BB-yy/	.	4BB-/	-le-	.	4d\	.	.	4g\	.	.	4dd\	-le-	.	2.ryy	4d\	.	4g/)	.	4dd\	.	2.ryy	.	2.ryy	4B- 4BB-\	.	2.r	.	4g/	4d\	.	4dd/]	2.rg	.	2.ryy	4ddd\]	.
8BBn^</	.	8BBn^<yy/	.	8BBn/	-i-	.	8d\	.	.	8g\	.	.	8dd\	-i-	.	.	8d\	.	8g/	.	(>8dd^<\	.	.	.	.	8Bn 8BBn\	.	.	.	8g/	8d\	.	8dd^>/	.	.	.	8ddd^<\	.
!	!	!	!	!	!	!	!	!	!	!	!	!	!	!	!	!	!	!	!	!	!	!	!	!	!	!	!	!	!	!	!	!	!LO:TX:a:t=P:problem:brak zakończenia ligatury	!	!	!	!	!
4C/	.	4Cyy/	.	4C/	-son	.	4e-\	.	.	4g\	.	.	4ee-\	-son	.	.	4e-\	.	4g/	.	4ee-\)	.	.	.	.	4c 4C\	.	.	.	4g/	4e-\	.	[>4.ee-/	.	.	.	[>4.eee-\	.
8C/	.	8Cyy/	.	8C/	e-	.	8r	.	.	8a-\	.	.	8ee-\	e-	.	.	8r	.	8a-^</	.	8ee-\	.	.	.	.	8c 8C\	.	.	.	8a-/	8a-\	.	.	.	.	.	.	.
!!LO:PB:g=original
=75	=75	=75	=75	=75	=75	=75	=75	=75	=75	=75	=75	=75	=75	=75	=75	=75	=75	=75	=75	=75	=75	=75	=75	=75	=75	=75	=75	=75	=75	=75	=75	=75	=75	=75	=75	=75	=75	=75
!	!	!	!	!	!	!	!	!	!	!	!	!	!	!	!	!	!	!	!	!	!	!	!	!	!	!	!	!	!	!	!	!	!	!	!	!	!LO:TX:t=P:problem:t. 75-79 zapisane jako powtórzenie 1 skrzypiec	!
!	!	!	!	!	!	!	!	!	!	!	!	!	!	!	!	!	!	!	!	!	!	!	!LO:TX:i:a:t=Tromboni	!	!	!	!	!	!	!	!	!	!	!	!	!	!LO:TX:i:a:t=Col Vo. Io. 8va	!
4.C/	.	4.Cyy/	.	4C/	-le-	.	4r	.	.	4a-\	.	.	4ee-\	-le-	.	2.ryy	4r	.	4a-/	.	4ee-\	.	2.r	.	2.ryy	4c 4C\	.	2.r	.	4a-/	4a-\	.	4ee-/]	4rg	.	2.ryy	4eee-yy\]	.
.	.	.	.	8C/	-i-	.	8r	.	.	8a-\	.	.	8een\	-i-	.	.	8r	.	8a-/	.	8een\	.	.	.	.	8c 8C\	.	.	.	8a-/	8a-\	.	8een/	8rg	.	.	8eeenyy\	.
4D/	.	4Dyy/	.	4D\	-son	.	4.B-\	e-	.	4a-\	.	.	4ff\	-son	.	.	4.B-/	.	4a-/	.	4ff\	.	.	.	.	4d 4D\	.	.	.	4a-/	4a-\	.	4ff/	4rg	.	.	4fffyy\	.
!	!	!	!	!	!	!	!	!	!	!	!	!	!	!	!	!	!	!	!	!	!	!	!	!	!	!	!LO:DY:a	!	!	!	!	!	!	!	!	!	!	!
8D/	.	8Dyy/	.	8D\	e-	.	.	.	.	8a-\	.	.	8b-\	e-	.	.	.	.	8a-/	.	8b-\	.	.	.	.	8d 8D\	f	.	.	8b-/	8a-\	.	8aa-/	8b-\	.	.	8bb-yy\	.
=76	=76	=76	=76	=76	=76	=76	=76	=76	=76	=76	=76	=76	=76	=76	=76	=76	=76	=76	=76	=76	=76	=76	=76	=76	=76	=76	=76	=76	=76	=76	=76	=76	=76	=76	=76	=76	=76	=76
!	!LO:DY:b:rj	!	!LO:DY:b:rj	!	!	!	!	!	!	!	!	!	!	!	!	!	!	!	!	!	!	!LO:DY:b:rj	!	!LO:DY:a:rj	!	!	!	!	!	!	!	!	!	!	!LO:DY:b:rj	!	!	!LO:DY:b:rj
4E-\	f	4E-yy\	f	4E-\	-le-	.	4B-\	-le-	.	4g\	.	.	4gg\	-le-	.	2.ryy	4B-/	.	4g/	.	4gg 4b- 4e-\	f	4g 4B- 4E-\	f	2.ryy	4e- 4E-\	.	4g 4G/	.	4b-/	4g\	.	4gg 4b-\	4ryy	f	2.ryy	4gggyy 4bb-yy 4ee-yy\	f
8D\	.	8Dyy\	.	8D\	-i-	.	8Bn\	-i-	.	8g\	.	.	8ff\	-i-	.	.	8Bn/	.	8g/	.	8ff\	.	8f 8Bn 8D\	.	.	8d 8D\	.	8g 8G/	.	8bX/	8g\	.	8ff 8bn\	8rcyy	.	.	8fffyy\	.
4C/	.	4Cyy/	.	4C/	-son	.	4c\	-son	.	4g\	.	.	4ee-\	-son	.	.	4c/	.	4g/	.	4ee-\	.	4e- 4c 4C\	.	.	4c 4C\	.	4g 4G/	.	4cc/	4g\	.	4ee-/	4cc\	.	.	4eee-yy\	.
8BB-/	.	8BB-yy/	.	8BB-/	e-	.	8d\	e-	.	8g\	.	.	8dd\	e-	.	.	8d\	.	8g/	.	8dd\	.	8d 8B-X 8BB-\	.	.	8B- 8BB-\	.	8g 8G/	.	8dd/	8g\	.	8dd/	8dd\	.	.	8dddyy\	.
=77	=77	=77	=77	=77	=77	=77	=77	=77	=77	=77	=77	=77	=77	=77	=77	=77	=77	=77	=77	=77	=77	=77	=77	=77	=77	=77	=77	=77	=77	=77	=77	=77	=77	=77	=77	=77	=77	=77
*	*	*	*	*	*	*	*	*	*	*	*	*	*	*	*	*	*	*	*	*	*	*	*	*	*	*	*	*^	*	*	*	*	*	*	*	*	*	*
4.AA-/	.	4.AA-yy/	.	4AA-/	-le-	.	(>8.e-\L	-lei-	.	4a-\	.	.	4cc\	-le-	.	2.ryy	(>8.e-\L	.	4a-/	.	4cc\	.	4.c 4.A- 4.AA-\	.	2.ryy	4.A- 4.AA-\	.	4a-/	8.e-\L	.	4cc/	4a-\	.	4cc/	4cc\	.	2.ryy	4cccyy\	.
.	.	.	.	.	.	.	16d\K	.	.	.	.	.	.	.	.	.	16d\K	.	.	.	.	.	.	.	.	.	.	.	16d\K	.	.	.	.	.	.	.	.	.	.
.	.	.	.	8AA-/	-i-	.	8c\J)	.	.	8a-\	.	.	8ff\	-i-	.	.	8c\J)	.	8a-/	.	8ff\	.	.	.	.	.	.	8a-/	8c\J	.	8ff/	8a-\	.	8ff/	8cc\	.	.	8fffyy\	.
4BB-/	.	4BB-yy/	.	4BB-/	-son	.	4B-\	-son	.	4g\	.	.	4ee-\	-son	.	.	4B-/	.	4g/	.	(>4ee-\	.	4e- 4G 4BB-\	.	.	4B- 4BB-\	.	4g/	4B-\	.	4ee-/	4g\	.	4ee-/	4b-\	.	.	(>4eee-yy\	.
8BB-/	.	8BB-yy/	.	8BB-/	e-	.	8B-\	e-	.	8f\	.	.	8dd\	e-	.	.	8B-/	.	8f/	.	8dd\)	.	8d 8F 8BB-\	.	.	8B- 8BB-\	.	8f/	8B-\	.	8dd/	8f\	.	8dd/	8b-\	.	.	8dddyy\)	.
*	*	*	*	*	*	*	*	*	*	*	*	*	*	*	*	*	*	*	*	*	*	*	*	*	*	*	*	*v	*v	*	*	*	*	*	*	*	*	*	*
=78	=78	=78	=78	=78	=78	=78	=78	=78	=78	=78	=78	=78	=78	=78	=78	=78	=78	=78	=78	=78	=78	=78	=78	=78	=78	=78	=78	=78	=78	=78	=78	=78	=78	=78	=78	=78	=78	=78
*	*	*	*	*	*	*	*	*	*	*	*	*	*	*	*	*	*	*	*	*	*	*	*^	*	*	*	*	*	*	*	*	*	*	*	*	*	*	*
4E-\	.	4E-yy\	.	4E-\	-le-	.	4B-\	-le-	.	4g\	.	.	4gg\	-le-	.	2.ryy	4B-/	.	4g/	.	4gg 4b- 4e-\	.	4g/	4B- 4E-\	.	2.ryy	4e- 4E-\	.	4g 4G/	.	4ee-/	4g\	.	4gg 4b-\	4ryy	.	2.ryy	4gggyy 4bb-yy 4ee-yy\	.
8D\	.	8Dyy\	.	8D\	-i-	.	8Bn\	-i-	.	8g\	.	.	8ff\	-i-	.	.	8Bn/	.	8g/	.	8ff\	.	8f/	8Bn 8D\	.	.	8d 8D\	.	8g 8G/	.	8bX/	8g\	.	8ff 8bn\	8reyy	.	.	8fffyy\	.
4C/	.	4Cyy/	.	4C/	-son	.	4c\	-son	.	4g\	.	.	4ee-\	-son	.	.	4c/	.	4g/	.	4ee-\	.	4e- 4c 4C\	4rAAAyy	.	.	4c 4C\	.	4g 4G/	.	4cc/	4g\	.	4ee-/	4cc\	.	.	4eee-yy\	.
8BB-/	.	8BB-yy/	.	8BB-/	e-	.	8d\	e-	.	8g\	.	.	8dd\	e-	.	.	8d\	.	8g/	.	8dd\	.	8d 8B-X 8BB-\	8rAAAyy	.	.	8B- 8BB-\	.	8g 8G/	.	8dd/	8g\	.	8dd/	8dd\	.	.	8dddyy\	.
*	*	*	*	*	*	*	*	*	*	*	*	*	*	*	*	*	*	*	*	*	*	*	*v	*v	*	*	*	*	*	*	*	*	*	*	*	*	*	*	*
=79	=79	=79	=79	=79	=79	=79	=79	=79	=79	=79	=79	=79	=79	=79	=79	=79	=79	=79	=79	=79	=79	=79	=79	=79	=79	=79	=79	=79	=79	=79	=79	=79	=79	=79	=79	=79	=79	=79
*	*	*	*	*	*	*	*	*	*	*	*	*	*	*	*	*	*	*	*	*	*	*	*	*	*	*	*	*^	*	*	*	*	*	*	*	*	*	*
(<4.AA-/	.	(<4.AA-yy/	.	(>4.AA-/	-le-	.	(>8.e-\L	-le-	.	(>4.a-\	.	.	(>4cc\	-le-	.	2.ryy	(>8.e-\L	.	4.a-/	.	4cc\	.	4.c 4.A- 4.AA-\	.	2.ryy	4.A- 4.AA-\	.	4a-/	8.e-\L	.	4cc/	4a-\	.	4ryy	4cc\	.	2.ryy	4cccyy\	.
.	.	.	.	.	.	.	16d\K	.	.	.	.	.	.	.	.	.	16d\K	.	.	.	.	.	.	.	.	.	.	.	16d\K	.	.	.	.	.	.	.	.	.	.
.	.	.	.	.	.	.	8c\J	.	.	.	.	.	8ff\	.	.	.	8c\J)	.	.	.	(>8ff\	.	.	.	.	.	.	8a-/	8c\J	.	8cc/	8a-\	.	8ff/	8cc\	.	.	(>8fffyy\	.
4BB-/)	.	4BB-yy/)	.	4BB-/)	.	.	4B-\)	.	.	4g\)	.	.	4ee-\)	.	.	.	4B-/	.	(<4g/	.	4ee-\	.	4e- 4G 4BB-\	.	.	4B- 4BB-\	.	4g/	4B-\	.	4b-/	4g\	.	4ee-/	4b-\	.	.	4eee-yy\	.
8BB-/	.	8BB-yy/	.	8BB-/	-i	.	8B-\	-i	.	8f\	.	.	8dd\	-i	.	.	8B-/	.	8f/)	.	8dd\)	.	8d 8A- 8BB-\	.	.	8B- 8BB-\	.	8f/	8B-\	.	8b-/	8a-\	.	8dd/	8b-\	.	.	8dddyy\)	.
!!LO:PB:g=original
=80	=80	=80	=80	=80	=80	=80	=80	=80	=80	=80	=80	=80	=80	=80	=80	=80	=80	=80	=80	=80	=80	=80	=80	=80	=80	=80	=80	=80	=80	=80	=80	=80	=80	=80	=80	=80	=80	=80	=80
4E-\	.	4E-yy\	.	4E-\	.	.	4B-\	.	.	4g\	.	.	4ee-\	.	.	2.ryy	4B- 4E-/	.	4g/	.	4ee-\	.	4e- 4G 4E-\	.	2.ryy	4B- 4E-\	.	4e-/	4c\	.	4b-/	4g\	.	4ee-/	4b-\	.	2.ryy	4eee-\	.
8r	.	8ryy	.	8r	.	.	8r	.	.	8r	.	.	8r	.	.	.	8r	.	8a-`</	.	8cc`>\	.	8r	.	.	8r	.	8r	8rGyy	.	8r	8rdyy	.	8r	8reyy	.	.	8r	.
4r	.	4ryy	.	4r	.	.	4r	.	.	4r	.	.	4r	.	.	.	4r	.	(<4g/	.	(>4b-\	.	4r	.	.	4r	.	4r	4rGyy	.	4r	4rdyy	.	4r	4reyy	.	.	4r	.
8r	.	8ryy	.	8r	.	.	8r	.	.	8r	.	.	8r	.	.	.	8r	.	8en/	.	8g/	.	8r	.	.	8r	.	8r	8rGyy	.	8r	8rdyy	.	8r	8reyy	.	.	8r	.
*	*	*	*	*	*	*	*	*	*	*	*	*	*	*	*	*	*	*	*	*	*	*	*	*	*	*	*	*v	*v	*	*	*	*	*v	*v	*	*	*	*
*	*	*	*	*	*	*	*	*	*	*	*	*	*	*	*	*	*	*	*	*	*	*	*	*	*	*	*	*	*	*v	*v	*	*	*	*	*	*
=81	=81	=81	=81	=81	=81	=81	=81	=81	=81	=81	=81	=81	=81	=81	=81	=81	=81	=81	=81	=81	=81	=81	=81	=81	=81	=81	=81	=81	=81	=81	=81	=81	=81	=81	=81	=81
2.r	.	2.r	.	2.r	.	.	2.r	.	.	2.r	.	.	2.r	.	.	2.ryy	2.r	.	4f/)	.	4a-/)	.	2.ryy	.	2.ryy	2.ryy	.	2.ryy	.	2.ryy	.	2.ryy	.	2.ryy	2.ryy	.
.	.	.	.	.	.	.	.	.	.	.	.	.	.	.	.	.	.	.	8g`</	.	8b-`>/	.	.	.	.	.	.	.	.	.	.	.	.	.	.	.
.	.	.	.	.	.	.	.	.	.	.	.	.	.	.	.	.	.	.	(<4f/	.	(>4a-/	.	.	.	.	.	.	.	.	.	.	.	.	.	.	.
.	.	.	.	.	.	.	.	.	.	.	.	.	.	.	.	.	.	.	8d/	.	8f/	.	.	.	.	.	.	.	.	.	.	.	.	.	.	.
=82	=82	=82	=82	=82	=82	=82	=82	=82	=82	=82	=82	=82	=82	=82	=82	=82	=82	=82	=82	=82	=82	=82	=82	=82	=82	=82	=82	=82	=82	=82	=82	=82	=82	=82	=82	=82
2.r	.	4r	.	2.r	.	.	2.r	.	.	2.r	.	.	2.r	.	.	2.ryy	8r	.	4e-/)	.	4g/)	.	2.ryy	.	2.ryy	2.ryy	.	2.ryy	.	2.ryy	.	2.ryy	.	2.ryy	2.ryy	.
.	.	.	.	.	.	.	.	.	.	.	.	.	.	.	.	.	8r	.	.	.	.	.	.	.	.	.	.	.	.	.	.	.	.	.	.	.
!	!	!	!LO:DY:b:rj	!	!	!	!	!	!	!	!	!	!	!	!	!	!	!	!	!	!	!	!	!	!	!	!	!	!	!	!	!	!	!	!	!
.	.	8c'>\	p	.	.	.	.	.	.	.	.	.	.	.	.	.	8c`</	.	8a-`</	.	8r	.	.	.	.	.	.	.	.	.	.	.	.	.	.	.
.	.	(>4B-\	.	.	.	.	.	.	.	.	.	.	.	.	.	.	(<4B-/	.	(<4g/	.	4r	.	.	.	.	.	.	.	.	.	.	.	.	.	.	.
.	.	8G\	.	.	.	.	.	.	.	.	.	.	.	.	.	.	8G/	.	8en/	.	8r	.	.	.	.	.	.	.	.	.	.	.	.	.	.	.
=83	=83	=83	=83	=83	=83	=83	=83	=83	=83	=83	=83	=83	=83	=83	=83	=83	=83	=83	=83	=83	=83	=83	=83	=83	=83	=83	=83	=83	=83	=83	=83	=83	=83	=83	=83	=83
4r	.	4A-\)	.	2.r	.	.	2.r	.	.	2.r	.	.	2.r	.	.	2.ryy	4A-/)	.	4f/)	.	2.r	.	2.ryy	.	2.ryy	2.ryy	.	2.ryy	.	2.ryy	.	2.ryy	.	2.ryy	2.ryy	.
8r	.	8B-`>\	.	.	.	.	.	.	.	.	.	.	.	.	.	.	8B-`</	.	8g`</	.	.	.	.	.	.	.	.	.	.	.	.	.	.	.	.	.
4r	.	(>4A-\	.	.	.	.	.	.	.	.	.	.	.	.	.	.	(<4A-/	.	(<4f/	.	.	.	.	.	.	.	.	.	.	.	.	.	.	.	.	.
!	!LO:DY:b	!	!	!	!	!	!	!	!	!	!	!	!	!	!	!	!	!	!	!	!	!	!	!	!	!	!	!	!	!	!	!	!	!	!	!
[<8BB-/	pp	[<8BB-/	.	.	.	.	.	.	.	.	.	.	.	.	.	.	8F/	.	8d/	.	.	.	.	.	.	.	.	.	.	.	.	.	.	.	.	.
=84	=84	=84	=84	=84	=84	=84	=84	=84	=84	=84	=84	=84	=84	=84	=84	=84	=84	=84	=84	=84	=84	=84	=84	=84	=84	=84	=84	=84	=84	=84	=84	=84	=84	=84	=84	=84
!	!	!LO:TX:t=P:problem:dwie ukośne kreski - unisono z kontrabasem (t. 84-85)	!	!	!	!	!	!	!	!	!	!	!	!	!	!	!	!	!	!	!	!	!	!	!	!	!	!	!	!	!	!	!	!	!	!
8.BB-/L]	.	8.BB-yy/L])	.	2.r	.	.	2.r	.	.	2.r	.	.	2.r	.	.	2.ryy	2.F/)	.	(<2.A-/)	.	(>2.d/	.	2.ryy	.	2.ryy	2.ryy	.	2.ryy	.	2.ryy	.	2.ryy	.	2.ryy	2.ryy	.
16C`</K	.	16C`<yy/K	.	.	.	.	.	.	.	.	.	.	.	.	.	.	.	.	.	.	.	.	.	.	.	.	.	.	.	.	.	.	.	.	.	.
8BB-`</J	.	8BB-`<yy/J	.	.	.	.	.	.	.	.	.	.	.	.	.	.	.	.	.	.	.	.	.	.	.	.	.	.	.	.	.	.	.	.	.	.
(<8AA-/L	.	(<8AA-yy/L	.	.	.	.	.	.	.	.	.	.	.	.	.	.	.	.	.	.	.	.	.	.	.	.	.	.	.	.	.	.	.	.	.	.
8GG/	.	8GGyy/	.	.	.	.	.	.	.	.	.	.	.	.	.	.	.	.	.	.	.	.	.	.	.	.	.	.	.	.	.	.	.	.	.	.
8FF/J	.	8FFyy/J	.	.	.	.	.	.	.	.	.	.	.	.	.	.	.	.	.	.	.	.	.	.	.	.	.	.	.	.	.	.	.	.	.	.
=85	=85	=85	=85	=85	=85	=85	=85	=85	=85	=85	=85	=85	=85	=85	=85	=85	=85	=85	=85	=85	=85	=85	=85	=85	=85	=85	=85	=85	=85	=85	=85	=85	=85	=85	=85	=85
!	!	!	!	!	!	!	!	!	!	!	!	!	!	!	!	!	!	!	!	!	!	!	!	!	!	!	!	!	!	!	!	!	!	!	!LO:TX:a:t=P:problem:trzy wykreślone takty na końcu	!
4EE-/)	.	4EE-yy/)	.	2.r	.	.	2.r	.	.	2.r	.	.	2.r	.	.	2.ryy	4E-/	.	4G/)	.	4e-/)	.	2.ryy	.	2.ryy	2.ryy	.	2.ryy	.	2.ryy	.	2.ryy	.	2.ryy	2.ryy	.
8r	.	8ryy	.	.	.	.	.	.	.	.	.	.	.	.	.	.	8r	.	8r	.	8r	.	.	.	.	.	.	.	.	.	.	.	.	.	.	.
4r	.	4ryy	.	.	.	.	.	.	.	.	.	.	.	.	.	.	4r	.	4r	.	4r	.	.	.	.	.	.	.	.	.	.	.	.	.	.	.
8r	.	8ryy	.	.	.	.	.	.	.	.	.	.	.	.	.	.	8r	.	8r	.	8r	.	.	.	.	.	.	.	.	.	.	.	.	.	.	.
==	==	==	==	==	==	==	==	==	==	==	==	==	==	==	==	==	==	==	==	==	==	==	==	==	==	==	==	==	==	==	==	==	==	==	==	==
*-	*-	*-	*-	*-	*-	*-	*-	*-	*-	*-	*-	*-	*-	*-	*-	*-	*-	*-	*-	*-	*-	*-	*-	*-	*-	*-	*-	*-	*-	*-	*-	*-	*-	*-	*-	*-
!!!system-decoration: ({s1,s2}s3,s4,s5,s6,s7,s8{(s9,s10)}s11,s12{s13,s14,s15,s16}s17,s18)
!!!RDF**kern: > = above
!!!RDF**kern: < = below
!!!RDF**dynam: < = "cresc", fontstyle = "italic"
!!!RDF**kern: N = linked
!!!EED: Antoni Szymański
!!!EST: 2021-05-03
!!!ENC: Marcin Jachim
!!!END: 2021-04-12
